;FLAVOR:Marlin
M117 Time Left 0h23m52s
;TIME:1432
;Filament used: 1.73396m
;Layer height: 0.2
;MINX:88.5
;MINY:88.5
;MINZ:0.2
;MAXX:131.5
;MAXY:131.5
;MAXZ:20
;TARGET_MACHINE.NAME:Creality Ender-5
;POSTPROCESSED
;Generated with Cura_SteamEngine 5.5.0
M140 S50
M105
M190 S50
M104 S190
M105
M109 S190
M82 ;absolute extrusion mode
M201 X500.00 Y500.00 Z100.00 E5000.00 ;Setup machine max acceleration
M203 X500.00 Y500.00 Z10.00 E50.00 ;Setup machine max feedrate
M204 P500.00 R1000.00 T500.00 ;Setup Print/Retract/Travel acceleration
M205 X8.00 Y8.00 Z0.40 E5.00 ;Setup Jerk
M220 S100 ;Reset Feedrate
M221 S100 ;Reset Flowrate

G28 ;Home

G92 E0 ;Reset Extruder
G1 Z2.0 F3000 ;Move Z Axis up
G1 X10.1 Y20 Z0.28 F5000.0 ;Move to start position
G1 X10.1 Y200.0 Z0.28 F1500.0 E15 ;Draw the first line
G1 X10.4 Y200.0 Z0.28 F5000.0 ;Move to side a little
G1 X10.4 Y20 Z0.28 F1500.0 E30 ;Draw the second line
G92 E0 ;Reset Extruder
G1 Z2.0 F3000 ;Move Z Axis up

M83 ;relative extrusion mode
G1 F2400 E-5.5
;LAYER_COUNT:100
;LAYER:0
M107
G0 F6000 X92.015 Y91.742 Z0.2
;TYPE:SKIRT
G1 F2400 E5.5
G1 F1200 X92.772 Y91.072 E0.05043
G1 X93.679 Y90.409 E0.05605
G1 X94.547 Y89.889 E0.05048
G1 X95.459 Y89.448 E0.05054
G1 X96.357 Y89.105 E0.04796
G1 X97.33 Y88.827 E0.05049
G1 X98.396 Y88.624 E0.05414
G1 X99.694 Y88.513 E0.06499
G1 X100.304 Y88.5 E0.03044
G1 X119.309 Y88.5 E0.94816
G1 X120.21 Y88.513 E0.04496
G1 X121.169 Y88.571 E0.04793
G1 X122.22 Y88.729 E0.05302
G1 X123.103 Y88.94 E0.04529
G1 X124.167 Y89.296 E0.05598
G1 X125.093 Y89.705 E0.0505
G1 X125.978 Y90.192 E0.0504
G1 X126.734 Y90.695 E0.0453
G1 X127.608 Y91.395 E0.05587
G1 X128.264 Y92.022 E0.04527
G1 X129.002 Y92.865 E0.0559
G1 X129.566 Y93.642 E0.0479
G1 X130.114 Y94.555 E0.05312
G1 X130.513 Y95.37 E0.04527
G1 X130.914 Y96.417 E0.05594
G1 X131.187 Y97.392 E0.05051
G1 X131.377 Y98.405 E0.05142
G1 X131.487 Y99.694 E0.06454
G1 X131.5 Y100.33 E0.03174
G1 X131.499 Y119.407 E0.95176
G1 X131.488 Y120.188 E0.03897
G1 X131.427 Y121.199 E0.05053
G1 X131.296 Y122.097 E0.04528
G1 X131.053 Y123.133 E0.05309
G1 X130.715 Y124.145 E0.05323
G1 X130.354 Y124.978 E0.04529
G1 X129.819 Y125.96 E0.05579
G1 X129.255 Y126.804 E0.05064
G1 X128.654 Y127.553 E0.04791
G1 X127.954 Y128.286 E0.05057
G1 X127.154 Y128.987 E0.05307
G1 X126.422 Y129.524 E0.04529
G1 X125.465 Y130.103 E0.0558
G1 X124.553 Y130.547 E0.05061
G1 X123.707 Y130.873 E0.04523
G1 X122.63 Y131.183 E0.05591
G1 X121.617 Y131.374 E0.05143
G1 X120.306 Y131.487 E0.06565
G1 X119.67 Y131.5 E0.03174
G1 X100.558 Y131.499 E0.9535
G1 X99.806 Y131.488 E0.03752
G1 X98.796 Y131.426 E0.05048
G1 X97.846 Y131.285 E0.04791
G1 X96.808 Y131.036 E0.05326
G1 X95.848 Y130.711 E0.05056
G1 X94.969 Y130.326 E0.04788
G1 X94.035 Y129.816 E0.05309
G1 X93.192 Y129.253 E0.05057
G1 X92.483 Y128.686 E0.04529
G1 X91.673 Y127.913 E0.05586
G1 X91.01 Y127.15 E0.05043
G1 X90.443 Y126.373 E0.04799
G1 X89.894 Y125.46 E0.05315
G1 X89.472 Y124.597 E0.04793
G1 X89.091 Y123.602 E0.05316
G1 X88.84 Y122.73 E0.04527
G1 X88.625 Y121.61 E0.0569
G1 X88.513 Y120.294 E0.06589
G1 X88.5 Y119.658 E0.03174
G1 X88.501 Y100.518 E0.9549
G1 X88.512 Y99.8 E0.03583
G1 X88.569 Y98.841 E0.04793
G1 X88.726 Y97.788 E0.05312
G1 X88.936 Y96.905 E0.04528
G1 X89.273 Y95.893 E0.05321
G1 X89.7 Y94.915 E0.05324
G1 X90.188 Y94.028 E0.05051
G1 X90.752 Y93.186 E0.05056
G1 X91.388 Y92.398 E0.05052
G1 X91.647 Y92.127 E0.0187
G0 F1080 X92.015 Y91.742
G0 F6000 X92.449 Y92.157
G1 F1200 X93.169 Y91.522 E0.0479
G1 X93.988 Y90.923 E0.05062
G1 X94.81 Y90.429 E0.04785
G1 X95.673 Y90.009 E0.04788
G1 X96.571 Y89.666 E0.04796
G1 X97.444 Y89.416 E0.0453
G1 X98.448 Y89.222 E0.05102
G1 X99.707 Y89.113 E0.06305
G1 X100.317 Y89.1 E0.03044
G1 X119.301 Y89.1 E0.94712
G1 X120.174 Y89.112 E0.04356
G1 X121.133 Y89.17 E0.04793
G1 X122.081 Y89.313 E0.04783
G1 X122.964 Y89.524 E0.04529
G1 X123.926 Y89.845 E0.0506
G1 X124.805 Y90.231 E0.0479
G1 X125.646 Y90.692 E0.04785
G1 X126.402 Y91.195 E0.0453
G1 X127.193 Y91.829 E0.05057
G1 X127.849 Y92.456 E0.04527
G1 X128.517 Y93.219 E0.05059
G1 X129.052 Y93.952 E0.04527
G1 X129.575 Y94.819 E0.05052
G1 X129.974 Y95.634 E0.04527
G1 X130.337 Y96.58 E0.05055
G1 X130.598 Y97.504 E0.0479
G1 X130.779 Y98.457 E0.0484
G1 X130.887 Y99.707 E0.0626
G1 X130.9 Y100.33 E0.03109
G1 X130.899 Y119.399 E0.95136
G1 X130.889 Y120.153 E0.03762
G1 X130.833 Y121.112 E0.04793
G1 X130.702 Y122.01 E0.04528
G1 X130.483 Y122.944 E0.04786
G1 X130.164 Y123.906 E0.05056
G1 X129.803 Y124.739 E0.04529
G1 X129.319 Y125.628 E0.0505
G1 X128.787 Y126.428 E0.04793
G1 X128.186 Y127.177 E0.04791
G1 X127.521 Y127.871 E0.04795
G1 X126.799 Y128.503 E0.04787
G1 X126.067 Y129.04 E0.04529
G1 X125.201 Y129.564 E0.0505
G1 X124.337 Y129.987 E0.04799
G1 X123.491 Y130.313 E0.04523
G1 X122.517 Y130.594 E0.05057
G1 X121.565 Y130.776 E0.04836
G1 X120.293 Y130.887 E0.0637
G1 X119.67 Y130.9 E0.03109
G1 X100.566 Y130.899 E0.9531
G1 X99.842 Y130.889 E0.03612
G1 X98.883 Y130.832 E0.04793
G1 X97.985 Y130.701 E0.04528
G1 X96.999 Y130.467 E0.05056
G1 X96.089 Y130.161 E0.0479
G1 X95.21 Y129.776 E0.04788
G1 X94.367 Y129.316 E0.04791
G1 X93.567 Y128.784 E0.04793
G1 X92.858 Y128.217 E0.04529
G1 X92.125 Y127.518 E0.05053
G1 X91.494 Y126.795 E0.04788
G1 X90.957 Y126.063 E0.04529
G1 X90.433 Y125.196 E0.05054
G1 X90.011 Y124.333 E0.04793
G1 X89.668 Y123.436 E0.04791
G1 X89.417 Y122.564 E0.04527
G1 X89.223 Y121.559 E0.05107
G1 X89.113 Y120.282 E0.06395
G1 X89.1 Y119.658 E0.03114
G1 X89.101 Y100.527 E0.95445
G1 X89.111 Y99.836 E0.03448
G1 X89.168 Y98.877 E0.04793
G1 X89.31 Y97.927 E0.04792
G1 X89.52 Y97.044 E0.04528
G1 X89.823 Y96.132 E0.04795
G1 X90.226 Y95.203 E0.05052
G1 X90.687 Y94.361 E0.04789
G1 X91.22 Y93.562 E0.04792
G1 X91.822 Y92.813 E0.04794
G1 X92.081 Y92.542 E0.0187
G0 F1080 X92.449 Y92.157
G0 F6000 X92.883 Y92.572
G1 F1200 X93.565 Y91.973 E0.04529
G1 X94.298 Y91.437 E0.0453
G1 X95.074 Y90.968 E0.04524
G1 X95.889 Y90.569 E0.04527
G1 X96.736 Y90.243 E0.04528
G1 X97.609 Y89.993 E0.0453
G1 X98.5 Y89.82 E0.04528
G1 X99.72 Y89.713 E0.0611
G1 X100.33 Y89.7 E0.03044
G1 X119.293 Y89.7 E0.94607
G1 X120.139 Y89.711 E0.04221
G1 X121.045 Y89.764 E0.04528
G1 X121.942 Y89.897 E0.04524
G1 X122.825 Y90.108 E0.04529
G1 X123.686 Y90.395 E0.04528
G1 X124.518 Y90.758 E0.04529
G1 X125.314 Y91.192 E0.04523
G1 X126.07 Y91.695 E0.0453
G1 X126.778 Y92.263 E0.04528
G1 X127.434 Y92.89 E0.04527
G1 X128.032 Y93.573 E0.04529
G1 X128.567 Y94.306 E0.04527
G1 X129.036 Y95.083 E0.04528
G1 X129.435 Y95.898 E0.04527
G1 X129.76 Y96.745 E0.04526
G1 X130.009 Y97.618 E0.04529
G1 X130.181 Y98.509 E0.04527
G1 X130.287 Y99.72 E0.06065
G1 X130.3 Y100.33 E0.03044
G1 X130.299 Y119.392 E0.95101
G1 X130.29 Y120.119 E0.03627
G1 X130.239 Y121.025 E0.04527
G1 X130.108 Y121.923 E0.04528
G1 X129.899 Y122.806 E0.04527
G1 X129.613 Y123.667 E0.04526
G1 X129.252 Y124.5 E0.04529
G1 X128.819 Y125.297 E0.04525
G1 X128.318 Y126.054 E0.04529
G1 X127.752 Y126.763 E0.04526
G1 X127.125 Y127.42 E0.04531
G1 X126.444 Y128.019 E0.04525
G1 X125.712 Y128.556 E0.04529
G1 X124.936 Y129.026 E0.04526
G1 X124.121 Y129.427 E0.04532
G1 X123.275 Y129.753 E0.04523
G1 X122.403 Y130.005 E0.04528
G1 X121.512 Y130.178 E0.04528
G1 X120.28 Y130.287 E0.0617
G1 X119.67 Y130.3 E0.03044
G1 X100.574 Y130.299 E0.9527
G1 X99.876 Y130.29 E0.03483
G1 X98.97 Y130.238 E0.04527
G1 X98.072 Y130.107 E0.04528
G1 X97.189 Y129.898 E0.04527
G1 X96.328 Y129.611 E0.04528
G1 X95.496 Y129.249 E0.04527
G1 X94.698 Y128.816 E0.0453
G1 X93.942 Y128.315 E0.04525
G1 X93.233 Y127.748 E0.04529
G1 X92.576 Y127.122 E0.04527
G1 X91.978 Y126.44 E0.04525
G1 X91.441 Y125.708 E0.04529
G1 X90.971 Y124.931 E0.0453
G1 X90.571 Y124.117 E0.04525
G1 X90.245 Y123.27 E0.04528
G1 X89.994 Y122.398 E0.04527
G1 X89.821 Y121.507 E0.04528
G1 X89.713 Y120.269 E0.062
G1 X89.7 Y119.658 E0.03049
G1 X89.701 Y100.535 E0.95405
G1 X89.71 Y99.87 E0.03318
G1 X89.762 Y98.964 E0.04527
G1 X89.894 Y98.066 E0.04528
G1 X90.104 Y97.183 E0.04528
G1 X90.392 Y96.322 E0.04529
G1 X90.753 Y95.49 E0.04525
G1 X91.187 Y94.693 E0.04528
G1 X91.689 Y93.937 E0.04527
G1 X92.256 Y93.228 E0.04529
G1 X92.515 Y92.957 E0.0187
G0 F1080 X92.883 Y92.572
G1 F2400 E-5.5
;MESH:Cube
G0 F6000 X100.614 Y99.335
G0 X100.614 Y100.614
G0 X118.228 Y101.772
G0 X118.5 Y118.5
;TYPE:WALL-INNER
G1 F2400 E5.5
G1 F1200 X118.5 Y101.5 E0.84813
G1 X101.5 Y101.5 E0.84813
G1 X101.5 Y118.5 E0.84813
G1 X117.967 Y118.5 E0.82154
G0 F1080 X118.5 Y118.5
G0 F6000 X119.1 Y119.1
G1 F1200 X119.1 Y100.9 E0.908
G1 X100.9 Y100.9 E0.908
G1 X100.9 Y119.1 E0.908
G1 X118.567 Y119.1 E0.88141
G0 F1080 X119.1 Y119.1
G0 F6000 X119.7 Y119.7
;TYPE:WALL-OUTER
G1 F1200 X119.7 Y100.3 E0.96787
G1 X100.3 Y100.3 E0.96787
G1 X100.3 Y119.7 E0.96787
G1 X119.167 Y119.7 E0.94128
G0 F1080 X119.7 Y119.7
G0 F6000 X119.33 Y119.33
G0 X118.3 Y117.96
G0 X117.96 Y117.96
;TYPE:SKIN
G1 F1200 X102.04 Y117.96 E0.79425
G1 X102.04 Y102.04 E0.79425
G1 X117.96 Y102.04 E0.79425
G1 X117.96 Y117.427 E0.76766
G0 F1080 X117.96 Y117.96
G1 F2400 E-5.5
G0 F6000 X118.3 Y117.96
G0 X118.3 Y103.234
G0 X117.659 Y103.234
G1 F2400 E5.5
G1 F1200 X116.765 Y102.34 E0.06308
G0 F6000 X115.916 Y102.34
G1 F1200 X117.659 Y104.083 E0.12298
G0 F6000 X117.659 Y104.931
G1 F1200 X115.068 Y102.34 E0.18281
G0 F6000 X114.219 Y102.34
G1 F1200 X117.659 Y105.78 E0.24271
G0 F6000 X117.659 Y106.628
G1 F1200 X113.371 Y102.34 E0.30254
G0 F6000 X112.522 Y102.34
G1 F1200 X117.659 Y107.477 E0.36244
G0 F6000 X117.659 Y108.325
G1 F1200 X111.674 Y102.34 E0.42227
G0 F6000 X110.825 Y102.34
G1 F1200 X117.659 Y109.174 E0.48218
G0 F6000 X117.659 Y110.022
G1 F1200 X109.977 Y102.34 E0.54201
G0 F6000 X109.128 Y102.34
G1 F1200 X117.659 Y110.871 E0.60191
G0 F6000 X117.659 Y111.72
G1 F1200 X108.279 Y102.34 E0.66181
G0 F6000 X107.431 Y102.34
G1 F1200 X117.659 Y112.568 E0.72164
G0 F6000 X117.659 Y113.417
G1 F1200 X106.582 Y102.34 E0.78154
G0 F6000 X105.734 Y102.34
G1 F1200 X117.659 Y114.265 E0.84137
G0 F6000 X117.659 Y115.114
G1 F1200 X104.885 Y102.34 E0.90127
G0 F6000 X104.037 Y102.34
G1 F1200 X117.659 Y115.962 E0.96111
G0 F6000 X117.659 Y116.811
G1 F1200 X103.188 Y102.34 E1.02101
G0 F6000 X102.339 Y102.339
G1 F1200 X117.659 Y117.659 E1.08091
G0 F6000 X116.81 Y117.659
G1 F1200 X102.339 Y103.188 E1.02101
G0 F6000 X102.339 Y104.036
M117 Time Left 0h22m52s
G1 F1200 X115.961 Y117.659 E0.96114
G0 F6000 X115.113 Y117.659
G1 F1200 X102.339 Y104.885 E0.90127
G0 F6000 X102.339 Y105.733
G1 F1200 X114.264 Y117.659 E0.84141
G0 F6000 X113.416 Y117.659
G1 F1200 X102.339 Y106.582 E0.78154
G0 F6000 X102.339 Y107.43
G1 F1200 X112.567 Y117.659 E0.72168
G0 F6000 X111.719 Y117.659
G1 F1200 X102.339 Y108.279 E0.66181
G0 F6000 X102.339 Y109.127
G1 F1200 X110.87 Y117.659 E0.60194
G0 F6000 X110.022 Y117.659
G1 F1200 X102.339 Y109.976 E0.54208
G0 F6000 X102.339 Y110.824
G1 F1200 X109.173 Y117.659 E0.48221
G0 F6000 X108.325 Y117.659
G1 F1200 X102.339 Y111.673 E0.42234
G0 F6000 X102.339 Y112.521
G1 F1200 X107.476 Y117.659 E0.36248
G0 F6000 X106.628 Y117.659
G1 F1200 X102.339 Y113.37 E0.30261
G0 F6000 X102.339 Y114.218
G1 F1200 X105.779 Y117.659 E0.24275
G0 F6000 X104.931 Y117.659
G1 F1200 X102.339 Y115.067 E0.18288
G0 F6000 X102.339 Y115.916
G1 F1200 X104.082 Y117.659 E0.12298
G0 F6000 X103.234 Y117.659
G1 F1200 X102.339 Y116.764 E0.06315
G1 F2400 E-5.5
;MESH:NONMESH
G0 F300 X102.339 Y116.764 Z0.4
G0 F6000 X101.7 Y116.764
G0 X100.614 Y100.614
G0 X100.614 Y99.335
G0 X92.883 Y92.572
;TIME_ELAPSED:67.063246
;LAYER:1
M106 S85
;TYPE:SKIRT
G1 F2400 E5.5
G1 F1200 X93.565 Y91.973 E0.04529
G1 X94.298 Y91.437 E0.0453
G1 X95.074 Y90.968 E0.04524
G1 X95.889 Y90.569 E0.04527
G1 X96.736 Y90.243 E0.04528
G1 X97.609 Y89.993 E0.0453
G1 X98.5 Y89.82 E0.04528
G1 X99.72 Y89.713 E0.0611
G1 X100.33 Y89.7 E0.03044
G1 X119.293 Y89.7 E0.94607
G1 X120.139 Y89.711 E0.04221
G1 X121.045 Y89.764 E0.04528
G1 X121.942 Y89.897 E0.04524
G1 X122.825 Y90.108 E0.04529
G1 X123.686 Y90.395 E0.04528
G1 X124.518 Y90.758 E0.04529
G1 X125.314 Y91.192 E0.04523
G1 X126.07 Y91.695 E0.0453
G1 X126.778 Y92.263 E0.04528
G1 X127.434 Y92.89 E0.04527
G1 X128.032 Y93.573 E0.04529
G1 X128.567 Y94.306 E0.04527
G1 X129.036 Y95.083 E0.04528
G1 X129.435 Y95.898 E0.04527
G1 X129.76 Y96.745 E0.04526
G1 X130.009 Y97.618 E0.04529
G1 X130.181 Y98.509 E0.04527
G1 X130.287 Y99.72 E0.06065
G1 X130.3 Y100.33 E0.03044
G1 X130.299 Y119.392 E0.95101
G1 X130.29 Y120.119 E0.03627
G1 X130.239 Y121.025 E0.04527
G1 X130.108 Y121.923 E0.04528
G1 X129.899 Y122.806 E0.04527
G1 X129.613 Y123.667 E0.04526
G1 X129.252 Y124.5 E0.04529
G1 X128.819 Y125.297 E0.04525
G1 X128.318 Y126.054 E0.04529
G1 X127.752 Y126.763 E0.04526
G1 X127.125 Y127.42 E0.04531
G1 X126.444 Y128.019 E0.04525
G1 X125.712 Y128.556 E0.04529
G1 X124.936 Y129.026 E0.04526
G1 X124.121 Y129.427 E0.04532
G1 X123.275 Y129.753 E0.04523
G1 X122.403 Y130.005 E0.04528
G1 X121.512 Y130.178 E0.04528
G1 X120.28 Y130.287 E0.0617
G1 X119.67 Y130.3 E0.03044
G1 X100.574 Y130.299 E0.9527
G1 X99.876 Y130.29 E0.03483
G1 X98.97 Y130.238 E0.04527
G1 X98.072 Y130.107 E0.04528
G1 X97.189 Y129.898 E0.04527
G1 X96.328 Y129.611 E0.04528
G1 X95.496 Y129.249 E0.04527
G1 X94.698 Y128.816 E0.0453
G1 X93.942 Y128.315 E0.04525
G1 X93.233 Y127.748 E0.04529
G1 X92.576 Y127.122 E0.04527
G1 X91.978 Y126.44 E0.04525
G1 X91.441 Y125.708 E0.04529
G1 X90.971 Y124.931 E0.0453
G1 X90.571 Y124.117 E0.04525
G1 X90.245 Y123.27 E0.04528
G1 X89.994 Y122.398 E0.04527
G1 X89.821 Y121.507 E0.04528
G1 X89.713 Y120.269 E0.062
G1 X89.7 Y119.658 E0.03049
G1 X89.701 Y100.535 E0.95405
G1 X89.71 Y99.87 E0.03318
G1 X89.762 Y98.964 E0.04527
G1 X89.894 Y98.066 E0.04528
G1 X90.104 Y97.183 E0.04528
G1 X90.392 Y96.322 E0.04529
G1 X90.753 Y95.49 E0.04525
G1 X91.187 Y94.693 E0.04528
G1 X91.689 Y93.937 E0.04527
G1 X92.256 Y93.228 E0.04529
G1 X92.515 Y92.957 E0.0187
G0 F1080 X92.883 Y92.572
G1 F2400 E-5.5
;MESH:Cube
G0 F9000 X100.614 Y99.335
G0 X100.614 Y100.614
G0 X118.228 Y101.772
G0 X118.5 Y118.5
;TYPE:WALL-INNER
G1 F2400 E5.5
G1 F1800 X118.5 Y101.5 E0.84813
G1 X101.5 Y101.5 E0.84813
G1 X101.5 Y118.5 E0.84813
G1 X117.967 Y118.5 E0.82154
G0 F1620 X118.5 Y118.5
G0 F9000 X119.1 Y119.1
G1 F1800 X119.1 Y100.9 E0.908
G1 X100.9 Y100.9 E0.908
G1 X100.9 Y119.1 E0.908
G1 X118.567 Y119.1 E0.88141
G0 F1620 X119.1 Y119.1
G0 F9000 X119.7 Y119.7
;TYPE:WALL-OUTER
G1 F1800 X119.7 Y100.3 E0.96787
G1 X100.3 Y100.3 E0.96787
G1 X100.3 Y119.7 E0.96787
G1 X119.167 Y119.7 E0.94128
G0 F1620 X119.7 Y119.7
G0 F9000 X119.33 Y119.33
G0 X118.3 Y117.96
G0 X117.96 Y117.96
;TYPE:SKIN
G1 F1800 X102.04 Y117.96 E0.79425
G1 X102.04 Y102.04 E0.79425
G1 X117.96 Y102.04 E0.79425
G1 X117.96 Y117.427 E0.76766
G0 F1620 X117.96 Y117.96
G0 F9000 X117.659 Y117.383
G1 F1800 X117.382 Y117.659 E0.01951
G0 F9000 X116.534 Y117.659
G1 F1800 X117.659 Y116.534 E0.07937
G0 F9000 X117.659 Y115.686
G1 F1800 X115.685 Y117.659 E0.13924
G0 F9000 X114.836 Y117.659
G1 F1800 X117.659 Y114.837 E0.19914
G0 F9000 X117.659 Y113.989
G1 F1800 X113.988 Y117.659 E0.25897
G0 F9000 X113.139 Y117.659
G1 F1800 X117.659 Y113.14 E0.31888
G0 F9000 X117.659 Y112.292
G1 F1800 X112.291 Y117.659 E0.37871
G0 F9000 X111.442 Y117.659
G1 F1800 X117.659 Y111.443 E0.43861
G0 F9000 X117.659 Y110.595
G1 F1800 X110.594 Y117.659 E0.49844
G0 F9000 X109.745 Y117.659
G1 F1800 X117.659 Y109.746 E0.55834
G0 F9000 X117.659 Y108.897
G1 F1800 X108.897 Y117.659 E0.61821
G0 F9000 X108.048 Y117.659
G1 F1800 X117.659 Y108.049 E0.67807
G0 F9000 X117.659 Y107.2
G1 F1800 X107.2 Y117.659 E0.73794
G0 F9000 X106.351 Y117.659
G1 F1800 X117.659 Y106.352 E0.79781
G0 F9000 X117.659 Y105.503
G1 F1800 X105.503 Y117.659 E0.85767
G0 F9000 X104.654 Y117.659
G1 F1800 X117.659 Y104.655 E0.91754
G0 F9000 X117.659 Y103.806
G1 F1800 X103.806 Y117.659 E0.9774
G0 F9000 X102.957 Y117.659
G1 F1800 X117.659 Y102.958 E1.03727
G0 F9000 X117.429 Y102.339
G1 F1800 X102.34 Y117.428 E1.06461
G0 F9000 X102.34 Y116.579
G1 F1800 X116.58 Y102.339 E1.00471
G0 F9000 X115.732 Y102.339
G1 F1800 X102.34 Y115.731 E0.94488
G0 F9000 X102.34 Y114.882
G1 F1800 X114.883 Y102.339 E0.88498
G0 F9000 X114.035 Y102.339
G1 F1800 X102.34 Y114.034 E0.82515
G0 F9000 X102.34 Y113.185
