; generated by PrusaSlicer 2.7.2+win64 on 2024-03-20 at 22:55:21 UTC


;
;

;
;
; 

; external perimeters extrusion width = 0.63mm
; perimeters extrusion width = 0.66mm
; infill extrusion width = 0.66mm
; solid infill extrusion width = 0.66mm
; top infill extrusion width = 0.60mm
; support material extrusion width = 0.54mm
; first layer extrusion width = 0.63mm

M73 P0 R35

EXCLUDE_OBJECT_DEFINE NAME='Shape_Box' CENTER=115.000,112.500 POLYGON=[[125.000,122.500],[105.000,122.500],[105.000,102.500],[125.000,102.500]]

;TYPE:Custom
SET_PRINT_STATS_INFO TOTAL_LAYER=100
G90 ; use absolute coordinates
M83 ; extruder relative mode
M140 S70 ; set final bed temp
G4 S30 ; allow partial nozzle warmup
G28 ; home all axis
G1 Z5 F240
G1 X2.0 Y10 F3000
M104 S240 ; set final nozzle temp
M190 S70 ; wait for bed temp to stabilize
M109 S240 ; wait for nozzle temp to stabilize
G1 Z0.28 F240
G92 E0
G1 X2.0 Y200 E15 F1500 ; prime the nozzle
G1 X2.3 Y200 F5000
G92 E0
G1 X2.3 Y10 E30 F1200 ; prime the nozzle
G92 E0
G21 ; set units to millimeters
G90 ; use absolute coordinates
M83 ; use relative distances for extrusion
; Filament gcode
SET_RETRACTION RETRACT_LENGTH=1.5
M107
;LAYER_CHANGE
;Z:0.2
;HEIGHT:0.2
G10 ; retract
G1 Z.2 F9000
M73 P0 R34
G1 X102.332 Y99.29
G11 ; unretract
;TYPE:Skirt/Brim
;WIDTH:0.63
G1 F1800
G1 X103.948 Y98.461 E.08866
G1 X105 Y98.326 E.05178
G1 X125 Y98.326 E.97632
G1 X126.773 Y98.721 E.08867
M73 P1 R34
G1 X128.21 Y99.832 E.08867
G1 X129.039 Y101.448 E.08866
G1 X129.174 Y102.5 E.05178
G1 X129.174 Y122.5 E.97632
G1 X128.779 Y124.273 E.08867
G1 X127.668 Y125.71 E.08867
TIMELAPSE_TAKE_FRAME
G1 X126.052 Y126.539 E.08866
G1 X125 Y126.674 E.05178
G1 X105 Y126.674 E.97632
G1 X103.227 Y126.279 E.08867
G1 X101.79 Y125.168 E.08867
G1 X100.961 Y123.552 E.08866
G1 X100.826 Y122.5 E.05178
G1 X100.826 Y102.5 E.97632
G1 X101.221 Y100.727 E.08867
G1 X102.277 Y99.361 E.08428
G1 X102.277 Y99.361 F9000
G1 X102.75 Y99.768
G1 F1800
G1 X102.904 Y99.589 E.01153
G1 X105 Y98.913 E.10751
G1 X125 Y98.913 E.97632
G1 X126.635 Y99.307 E.0821
G1 X127.911 Y100.404 E.08214
G1 X128.587 Y102.5 E.10751
G1 X128.587 Y122.5 E.97632
G1 X128.193 Y124.135 E.0821
G1 X127.096 Y125.411 E.08214
G1 X125 Y126.087 E.10751
G1 X105 Y126.087 E.97632
G1 X103.365 Y125.693 E.0821
G1 X102.089 Y124.596 E.08214
G1 X101.413 Y122.5 E.10751
G1 X101.413 Y102.5 E.97632
G1 X101.807 Y100.865 E.0821
G1 X102.691 Y99.836 E.06622
EXCLUDE_OBJECT_START NAME='Shape_Box'
G10 ; retract
G1 X102.691 Y99.836 F9000
G1 X106.589 Y104.089
G11 ; unretract
;TYPE:Perimeter
;WIDTH:0.629999
G1 F1800
G1 X123.411 Y104.089 E.82118
G1 X123.411 Y112.5 E.41059
G1 X123.411 Y120.911 E.41059
G1 X106.589 Y120.911 E.82118
G1 X106.589 Y104.179 E.81679
G1 X106.589 Y104.179 F9000
G1 X106.002 Y103.502
G1 F1800
G1 X123.998 Y103.502 E.87849
G1 X123.998 Y112.5 E.43924
G1 X123.998 Y121.498 E.43924
G1 X106.002 Y121.498 E.87849
G1 X106.002 Y103.592 E.8741
G1 X105.415 Y102.915 F9000
;TYPE:External perimeter
G1 F1800
G1 X124.585 Y102.915 E.9358
G1 X124.585 Y112.5 E.4679
G1 X124.585 Y122.085 E.4679
G1 X105.415 Y122.085 E.9358
G1 X105.415 Y103.005 E.93141
G1 X106.008 Y102.916 F9000
G10 ; retract
G1 X123.223 Y105.488
G11 ; unretract
;TYPE:Solid infill
;WIDTH:0.64141
G1 F1800
G1 X122.276 Y104.541 E.06665
G1 X121.43 Y104.541 E.0421
G1 X122.959 Y106.07 E.10761
G1 X122.959 Y106.917 E.04215
G1 X120.583 Y104.541 E.16722
G1 X119.737 Y104.541 E.0421
G1 X122.959 Y107.763 E.22676
G1 X122.959 Y108.609 E.0421
G1 X118.891 Y104.541 E.2863
G1 X118.044 Y104.541 E.04215
G1 X122.959 Y109.456 E.34591
G1 X122.959 Y110.302 E.0421
G1 X117.198 Y104.541 E.40545
G1 X116.351 Y104.541 E.04215
G1 X122.959 Y111.149 E.46506
G1 X122.959 Y111.995 E.0421
G1 X115.505 Y104.541 E.5246
G1 X114.659 Y104.541 E.0421
G1 X122.959 Y112.841 E.58414
G1 X122.959 Y113.688 E.04215
G1 X113.812 Y104.541 E.64375
G1 X112.966 Y104.541 E.0421
G1 X122.959 Y114.534 E.70329
G1 X122.959 Y115.381 E.04215
G1 X112.12 Y104.541 E.76286
G1 X111.273 Y104.541 E.04215
G1 X122.959 Y116.227 E.82244
G1 X122.959 Y117.073 E.0421
G1 X110.427 Y104.541 E.88198
G1 X109.58 Y104.541 E.04215
G1 X122.959 Y117.92 E.94159
G1 X122.959 Y118.766 E.0421
M73 P2 R34
G1 X108.734 Y104.541 E1.00112
G1 X107.888 Y104.541 E.0421
G1 X122.959 Y119.612 E1.06066
G1 X122.959 Y120.459 E.04215
G1 X107.041 Y104.541 E1.12027
G1 X107.041 Y105.388 E.04215
G1 X122.112 Y120.459 E1.06066
G1 X121.266 Y120.459 E.0421
G1 X107.041 Y106.234 E1.00112
G1 X107.041 Y107.08 E.0421
G1 X120.42 Y120.459 E.94159
G1 X119.573 Y120.459 E.04215
G1 X107.041 Y107.927 E.88198
G1 X107.041 Y108.773 E.0421
G1 X118.727 Y120.459 E.82244
G1 X117.88 Y120.459 E.04215
G1 X107.041 Y109.62 E.76283
G1 X107.041 Y110.466 E.0421
G1 X117.034 Y120.459 E.70329
G1 X116.188 Y120.459 E.0421
G1 X107.041 Y111.312 E.64375
G1 X107.041 Y112.159 E.04215
G1 X115.341 Y120.459 E.58414
G1 X114.495 Y120.459 E.0421
G1 X107.041 Y113.005 E.5246
G1 X107.041 Y113.852 E.04215
G1 X113.648 Y120.459 E.46499
G1 X112.802 Y120.459 E.0421
G1 X107.041 Y114.698 E.40545
G1 X107.041 Y115.544 E.0421
G1 X111.956 Y120.459 E.34591
G1 X111.109 Y120.459 E.04215
G1 X107.041 Y116.391 E.2863
G1 X107.041 Y117.237 E.0421
G1 X110.263 Y120.459 E.22676
G1 X109.416 Y120.459 E.04215
G1 X107.041 Y118.084 E.16715
G1 X107.041 Y118.93 E.0421
G1 X108.57 Y120.459 E.10761
G1 X107.724 Y120.459 E.0421
G1 X106.777 Y119.512 E.06665
EXCLUDE_OBJECT_END NAME='Shape_Box'
M106 S51
;LAYER_CHANGE
;Z:0.4
;HEIGHT:0.2
;BEFORE_LAYER_CHANGE
G92 E0
;0.4
;M221 S89

G10 ; retract
G1 Z.4 F9000
;AFTER_LAYER_CHANGE
;0.4
SET_PRINT_STATS_INFO CURRENT_LAYER=2
EXCLUDE_OBJECT_START NAME='Shape_Box'
G1 X106.534 Y120.966
G11 ; unretract
;TYPE:Perimeter
;WIDTH:0.659999
G1 F2012
G1 X106.534 Y104.034 E.86879
G1 X123.466 Y104.034 E.86879
G1 X123.466 Y112.5 E.43439
G1 X123.466 Y120.966 E.43439
G1 X106.624 Y120.966 E.86417
G1 X106.624 Y120.966 F9000
G1 X105.917 Y121.583
G1 F2012
G1 X105.917 Y103.417 E.9321
G1 X124.083 Y103.417 E.9321
G1 X124.083 Y112.5 E.46605
G1 X124.083 Y121.583 E.46605
G1 X106.007 Y121.583 E.92749
G1 X105.315 Y122.185 F9000
;TYPE:External perimeter
;WIDTH:0.629999
G1 F2012
G1 X105.315 Y102.815 E.94556
G1 X124.685 Y102.815 E.94556
G1 X124.685 Y112.5 E.47278
G1 X124.685 Y122.185 E.47278
G1 X105.405 Y122.185 E.94117
G1 X105.316 Y121.592 F9000
G10 ; retract
G1 X107.177 Y104.559
G11 ; unretract
;TYPE:Solid infill
;WIDTH:0.80972
G1 F2012
G1 X107.109 Y104.492 E.00609
G1 X107.016 Y104.516 E.00612
G1 X106.992 Y104.609 E.00612
G1 X107.059 Y104.677 E.00609
G1 X107.152 Y104.652 E.00614
;WIDTH:0.659999
G1 X107.009 Y105.638 E.05112
G1 X108.138 Y104.509 E.08192
G1 X109.01 Y104.509 E.04474
G1 X107.009 Y106.51 E.1452
G1 X107.009 Y107.383 E.04479
G1 X109.883 Y104.509 E.20855
G1 X110.756 Y104.509 E.04479
G1 X107.009 Y108.256 E.2719
G1 X107.009 Y109.128 E.04474
G1 X111.628 Y104.509 E.33517
G1 X112.501 Y104.509 E.04479
G1 X107.009 Y110.001 E.39852
G1 X107.009 Y110.874 E.04479
G1 X113.374 Y104.509 E.46187
G1 X114.246 Y104.509 E.04474
G1 X107.009 Y111.746 E.52514
G1 X107.009 Y112.619 E.04479
G1 X115.119 Y104.509 E.58849
G1 X115.992 Y104.509 E.04479
G1 X107.009 Y113.492 E.65184
G1 X107.009 Y114.364 E.04474
G1 X116.864 Y104.509 E.71512
G1 X117.737 Y104.509 E.04479
M73 P3 R34
G1 X107.009 Y115.237 E.77846
G1 X107.009 Y116.11 E.04479
G1 X118.61 Y104.509 E.84181
G1 X119.482 Y104.509 E.04474
G1 X107.009 Y116.982 E.90509
G1 X107.009 Y117.855 E.04479
G1 X120.355 Y104.509 E.96844
G1 X121.228 Y104.509 E.04479
G1 X107.009 Y118.728 E1.03178
G1 X107.009 Y119.6 E.04474
G1 X122.1 Y104.509 E1.09506
G1 X122.973 Y104.509 E.04479
G1 X107.009 Y120.473 E1.15841
G1 X107.864 Y120.491 E.04388
G1 X122.991 Y105.364 E1.09767
G1 X122.991 Y106.237 E.04479
G1 X108.737 Y120.491 E1.03432
G1 X109.61 Y120.491 E.04479
G1 X122.991 Y107.11 E.97098
G1 X122.991 Y107.983 E.04479
G1 X110.483 Y120.491 E.90763
G1 X111.355 Y120.491 E.04474
G1 X122.991 Y108.855 E.84435
G1 X122.991 Y109.728 E.04479
G1 X112.228 Y120.491 E.781
G1 X113.101 Y120.491 E.04479
G1 X122.991 Y110.601 E.71766
G1 X122.991 Y111.473 E.04474
G1 X113.973 Y120.491 E.65438
G1 X114.846 Y120.491 E.04479
M73 P3 R33
G1 X122.991 Y112.346 E.59103
G1 X122.991 Y113.219 E.04479
G1 X115.719 Y120.491 E.52768
G1 X116.591 Y120.491 E.04474
G1 X122.991 Y114.091 E.46441
G1 X122.991 Y114.964 E.04479
G1 X117.464 Y120.491 E.40106
G1 X118.337 Y120.491 E.04479
G1 X122.991 Y115.837 E.33771
G1 X122.991 Y116.709 E.04474
G1 X119.209 Y120.491 E.27444
G1 X120.082 Y120.491 E.04479
G1 X122.991 Y117.582 E.21109
G1 X122.991 Y118.455 E.04479
G1 X120.955 Y120.491 E.14774
G1 X121.827 Y120.491 E.04474
G1 X122.991 Y119.327 E.08446
G1 X123.001 Y120.38 E.05403
;WIDTH:0.83024
G1 X122.931 Y120.311 E.00643
G1 X122.836 Y120.336 E.00643
G1 X122.811 Y120.431 E.00643
G1 X122.88 Y120.501 E.00643
G1 X122.975 Y120.475 E.00645
EXCLUDE_OBJECT_END NAME='Shape_Box'
M106 S99.45
;LAYER_CHANGE
;Z:0.6
;HEIGHT:0.2
;BEFORE_LAYER_CHANGE
G92 E0
;0.6
;

G10 ; retract
G1 Z.6 F9000
;AFTER_LAYER_CHANGE
;0.6
SET_PRINT_STATS_INFO CURRENT_LAYER=3
EXCLUDE_OBJECT_START NAME='Shape_Box'
G1 X123.466 Y120.966
G11 ; unretract
;TYPE:Perimeter
;WIDTH:0.659999
G1 F2007
G1 X106.534 Y120.966 E.86879
G1 X106.534 Y104.034 E.86879
G1 X123.466 Y104.034 E.86879
G1 X123.466 Y112.5 E.43439
G1 X123.466 Y120.876 E.42978
G1 X123.466 Y120.876 F9000
G1 X124.083 Y121.583
G1 F2007
G1 X105.917 Y121.583 E.9321
G1 X105.917 Y103.417 E.9321
G1 X124.083 Y103.417 E.9321
G1 X124.083 Y112.5 E.46605
G1 X124.083 Y121.493 E.46143
G1 X124.685 Y122.185 F9000
TIMELAPSE_TAKE_FRAME
;TYPE:External perimeter
;WIDTH:0.629999
G1 F2007
G1 X105.315 Y122.185 E.94556
G1 X105.315 Y102.815 E.94556
G1 X124.685 Y102.815 E.94556
G1 X124.685 Y112.5 E.47278
G1 X124.685 Y122.095 E.46839
G1 X124.092 Y122.184 F9000
G10 ; retract
G1 X107.059 Y120.323
G11 ; unretract
;TYPE:Solid infill
;WIDTH:0.80972
G1 F2007
G1 X106.992 Y120.391 E.00609
G1 X107.016 Y120.484 E.00612
G1 X107.109 Y120.508 E.00612
G1 X107.177 Y120.441 E.00609
G1 X107.152 Y120.348 E.00614
;WIDTH:0.659999
G1 X107.009 Y119.362 E.05112
G1 X108.138 Y120.491 E.08192
G1 X109.01 Y120.491 E.04474
G1 X107.009 Y118.49 E.1452
G1 X107.009 Y117.617 E.04479
G1 X109.883 Y120.491 E.20855
G1 X110.756 Y120.491 E.04479
G1 X107.009 Y116.744 E.2719
G1 X107.009 Y115.872 E.04474
G1 X111.628 Y120.491 E.33517
G1 X112.501 Y120.491 E.04479
G1 X107.009 Y114.999 E.39852
G1 X107.009 Y114.126 E.04479
G1 X113.374 Y120.491 E.46187
G1 X114.246 Y120.491 E.04474
G1 X107.009 Y113.254 E.52514
G1 X107.009 Y112.381 E.04479
M73 P4 R33
G1 X115.119 Y120.491 E.58849
G1 X115.992 Y120.491 E.04479
G1 X107.009 Y111.508 E.65184
G1 X107.009 Y110.636 E.04474
G1 X116.864 Y120.491 E.71512
G1 X117.737 Y120.491 E.04479
G1 X107.009 Y109.763 E.77846
G1 X107.009 Y108.89 E.04479
G1 X118.61 Y120.491 E.84181
G1 X119.482 Y120.491 E.04474
G1 X107.009 Y108.018 E.90509
G1 X107.009 Y107.145 E.04479
G1 X120.355 Y120.491 E.96844
G1 X121.228 Y120.491 E.04479
G1 X107.009 Y106.272 E1.03178
G1 X107.009 Y105.4 E.04474
G1 X122.1 Y120.491 E1.09506
G1 X122.973 Y120.491 E.04479
G1 X107.009 Y104.527 E1.15841
G1 X107.864 Y104.509 E.04388
G1 X122.991 Y119.636 E1.09767
G1 X122.991 Y118.763 E.04479
G1 X108.737 Y104.509 E1.03432
G1 X109.61 Y104.509 E.04479
G1 X122.991 Y117.89 E.97098
G1 X122.991 Y117.017 E.04479
G1 X110.483 Y104.509 E.90763
G1 X111.355 Y104.509 E.04474
G1 X122.991 Y116.145 E.84435
G1 X122.991 Y115.272 E.04479
G1 X112.228 Y104.509 E.781
G1 X113.101 Y104.509 E.04479
G1 X122.991 Y114.399 E.71766
G1 X122.991 Y113.527 E.04474
G1 X113.973 Y104.509 E.65438
G1 X114.846 Y104.509 E.04479
G1 X122.991 Y112.654 E.59103
G1 X122.991 Y111.781 E.04479
G1 X115.719 Y104.509 E.52768
G1 X116.591 Y104.509 E.04474
G1 X122.991 Y110.909 E.46441
G1 X122.991 Y110.036 E.04479
G1 X117.464 Y104.509 E.40106
G1 X118.337 Y104.509 E.04479
G1 X122.991 Y109.163 E.33771
G1 X122.991 Y108.291 E.04474
G1 X119.209 Y104.509 E.27444
G1 X120.082 Y104.509 E.04479
G1 X122.991 Y107.418 E.21109
G1 X122.991 Y106.545 E.04479
G1 X120.955 Y104.509 E.14774
G1 X121.827 Y104.509 E.04474
G1 X122.991 Y105.673 E.08446
G1 X122.975 Y104.525 E.05891
;WIDTH:0.83024
G1 X123.001 Y104.62 E.00645
G1 X122.931 Y104.689 E.00643
G1 X122.836 Y104.664 E.00643
G1 X122.811 Y104.569 E.00643
G1 X122.88 Y104.499 E.00643
EXCLUDE_OBJECT_END NAME='Shape_Box'
;LAYER_CHANGE
;Z:0.8
;HEIGHT:0.2
;BEFORE_LAYER_CHANGE
G92 E0
;0.8
;

G10 ; retract
G1 Z.8 F9000
;AFTER_LAYER_CHANGE
;0.8
SET_PRINT_STATS_INFO CURRENT_LAYER=4
EXCLUDE_OBJECT_START NAME='Shape_Box'
G1 X123.466 Y104.034
G11 ; unretract
;TYPE:Perimeter
;WIDTH:0.659999
G1 F2012
G1 X123.466 Y112.5 E.43439
G1 X123.466 Y120.966 E.43439
G1 X106.534 Y120.966 E.86879
G1 X106.534 Y104.034 E.86879
G1 X123.376 Y104.034 E.86417
G1 X123.376 Y104.034 F9000
G1 X124.083 Y103.417
G1 F2012
G1 X124.083 Y112.5 E.46605
G1 X124.083 Y121.583 E.46605
G1 X105.917 Y121.583 E.9321
G1 X105.917 Y103.417 E.9321
G1 X123.993 Y103.417 E.92749
G1 X124.685 Y102.815 F9000
;TYPE:External perimeter
;WIDTH:0.629999
G1 F2012
G1 X124.685 Y112.5 E.47278
G1 X124.685 Y122.185 E.47278
TIMELAPSE_TAKE_FRAME
G1 X105.315 Y122.185 E.94556
G1 X105.315 Y102.815 E.94556
G1 X124.595 Y102.815 E.94117
G1 X124.684 Y103.408 F9000
G10 ; retract
G1 X107.177 Y104.559
G11 ; unretract
;TYPE:Solid infill
;WIDTH:0.80972
G1 F2012
G1 X107.109 Y104.492 E.00609
G1 X107.016 Y104.516 E.00612
G1 X106.992 Y104.609 E.00612
G1 X107.059 Y104.677 E.00609
G1 X107.152 Y104.652 E.00614
;WIDTH:0.659999
G1 X107.009 Y105.638 E.05112
G1 X108.138 Y104.509 E.08192
G1 X109.01 Y104.509 E.04474
G1 X107.009 Y106.51 E.1452
G1 X107.009 Y107.383 E.04479
G1 X109.883 Y104.509 E.20855
G1 X110.756 Y104.509 E.04479
M73 P5 R33
G1 X107.009 Y108.256 E.2719
G1 X107.009 Y109.128 E.04474
G1 X111.628 Y104.509 E.33517
G1 X112.501 Y104.509 E.04479
G1 X107.009 Y110.001 E.39852
G1 X107.009 Y110.874 E.04479
G1 X113.374 Y104.509 E.46187
G1 X114.246 Y104.509 E.04474
G1 X107.009 Y111.746 E.52514
G1 X107.009 Y112.619 E.04479
G1 X115.119 Y104.509 E.58849
G1 X115.992 Y104.509 E.04479
G1 X107.009 Y113.492 E.65184
G1 X107.009 Y114.364 E.04474
G1 X116.864 Y104.509 E.71512
G1 X117.737 Y104.509 E.04479
G1 X107.009 Y115.237 E.77846
G1 X107.009 Y116.11 E.04479
G1 X118.61 Y104.509 E.84181
G1 X119.482 Y104.509 E.04474
G1 X107.009 Y116.982 E.90509
G1 X107.009 Y117.855 E.04479
G1 X120.355 Y104.509 E.96844
G1 X121.228 Y104.509 E.04479
G1 X107.009 Y118.728 E1.03178
G1 X107.009 Y119.6 E.04474
G1 X122.1 Y104.509 E1.09506
G1 X122.973 Y104.509 E.04479
G1 X107.009 Y120.473 E1.15841
G1 X107.864 Y120.491 E.04388
G1 X122.991 Y105.364 E1.09767
G1 X122.991 Y106.237 E.04479
G1 X108.737 Y120.491 E1.03432
G1 X109.61 Y120.491 E.04479
G1 X122.991 Y107.11 E.97098
G1 X122.991 Y107.983 E.04479
G1 X110.483 Y120.491 E.90763
G1 X111.355 Y120.491 E.04474
G1 X122.991 Y108.855 E.84435
G1 X122.991 Y109.728 E.04479
G1 X112.228 Y120.491 E.781
G1 X113.101 Y120.491 E.04479
G1 X122.991 Y110.601 E.71766
G1 X122.991 Y111.473 E.04474
G1 X113.973 Y120.491 E.65438
G1 X114.846 Y120.491 E.04479
G1 X122.991 Y112.346 E.59103
G1 X122.991 Y113.219 E.04479
G1 X115.719 Y120.491 E.52768
G1 X116.591 Y120.491 E.04474
G1 X122.991 Y114.091 E.46441
G1 X122.991 Y114.964 E.04479
G1 X117.464 Y120.491 E.40106
G1 X118.337 Y120.491 E.04479
G1 X122.991 Y115.837 E.33771
G1 X122.991 Y116.709 E.04474
G1 X119.209 Y120.491 E.27444
G1 X120.082 Y120.491 E.04479
G1 X122.991 Y117.582 E.21109
G1 X122.991 Y118.455 E.04479
G1 X120.955 Y120.491 E.14774
G1 X121.827 Y120.491 E.04474
G1 X122.991 Y119.327 E.08446
G1 X123.001 Y120.38 E.05403
;WIDTH:0.83024
G1 X122.931 Y120.311 E.00643
G1 X122.836 Y120.336 E.00643
G1 X122.811 Y120.431 E.00643
G1 X122.88 Y120.501 E.00643
G1 X122.975 Y120.475 E.00645
EXCLUDE_OBJECT_END NAME='Shape_Box'
;LAYER_CHANGE
;Z:1
;HEIGHT:0.2
;BEFORE_LAYER_CHANGE
G92 E0
;1
;

G10 ; retract
G1 Z1 F9000
;AFTER_LAYER_CHANGE
;1
SET_PRINT_STATS_INFO CURRENT_LAYER=5
EXCLUDE_OBJECT_START NAME='Shape_Box'
G1 X123.466 Y120.966
G11 ; unretract
;TYPE:Perimeter
;WIDTH:0.659999
G1 F999
G1 X106.534 Y120.966 E.86879
G1 X106.534 Y104.034 E.86879
G1 X123.466 Y104.034 E.86879
G1 X123.466 Y112.5 E.43439
G1 X123.466 Y120.876 E.42978
G1 X123.466 Y120.876 F9000
