; generated by PrusaSlicer 2.7.2+win64 on 2024-03-18 at 22:40:39 UTC


;
;

;
;
; 

; external perimeters extrusion width = 0.63mm
; perimeters extrusion width = 0.66mm
; infill extrusion width = 0.66mm
; solid infill extrusion width = 0.66mm
; top infill extrusion width = 0.60mm
; support material extrusion width = 0.54mm
; first layer extrusion width = 0.63mm

M73 P0 R39

EXCLUDE_OBJECT_DEFINE NAME='Shape_Box' CENTER=115.000,112.500 POLYGON=[[126.000,123.500],[104.000,123.500],[104.000,101.500],[126.000,101.500]]

;TYPE:Custom
SET_PRINT_STATS_INFO TOTAL_LAYER=110
G90 ; use absolute coordinates
M83 ; extruder relative mode
M140 S70 ; set final bed temp
G4 S30 ; allow partial nozzle warmup
G28 ; home all axis
G1 Z5 F240
G1 X2.0 Y10 F3000
M104 S240 ; set final nozzle temp
M190 S70 ; wait for bed temp to stabilize
M109 S240 ; wait for nozzle temp to stabilize
G1 Z0.28 F240
G92 E0
G1 X2.0 Y200 E15 F1500 ; prime the nozzle
G1 X2.3 Y200 F5000
G92 E0
G1 X2.3 Y10 E30 F1200 ; prime the nozzle
G92 E0
G21 ; set units to millimeters
G90 ; use absolute coordinates
M83 ; use relative distances for extrusion
; Filament gcode
SET_RETRACTION RETRACT_LENGTH=1.5
M107 ; disable fan
;LAYER_CHANGE
;Z:0.2
;HEIGHT:0.2
G10 ; retract
G1 Z.2 F9000 ; lift
G1 X101.332 Y98.29 ; move to first layer point
G11 ; unretract
;TYPE:Skirt/Brim
;WIDTH:0.63
G1 F1800
G1 X102.948 Y97.461 E.08866 ; skirt
G1 X104 Y97.326 E.05178 ; skirt
G1 X126 Y97.326 E1.07395 ; skirt
G1 X127.773 Y97.721 E.08867 ; skirt
G1 X129.21 Y98.832 E.08867 ; skirt
G1 X130.039 Y100.448 E.08866 ; skirt
G1 X130.174 Y101.5 E.05178 ; skirt
G1 X130.174 Y123.5 E1.07395 ; skirt
G1 X129.779 Y125.273 E.08867 ; skirt
G1 X128.668 Y126.71 E.08867 ; skirt
G1 X127.052 Y127.539 E.08866 ; skirt
G1 X126 Y127.674 E.05178 ; skirt
G1 X104 Y127.674 E1.07395 ; skirt
G1 X102.227 Y127.279 E.08867 ; skirt
G1 X100.79 Y126.168 E.08867 ; skirt
M73 P1 R39
G1 X99.961 Y124.552 E.08866 ; skirt
G1 X99.826 Y123.5 E.05178 ; skirt
G1 X99.826 Y101.5 E1.07395 ; skirt
G1 X100.221 Y99.727 E.08867 ; skirt
G1 X101.277 Y98.361 E.08428 ; skirt
G1 X101.277 Y98.361 F9000 ; move to first skirt point
G1 X101.75 Y98.768 ; move to first skirt point
G1 F1800
G1 X101.904 Y98.589 E.01153 ; skirt
G1 X104 Y97.913 E.10751 ; skirt
G1 X126 Y97.913 E1.07395 ; skirt
G1 X127.635 Y98.307 E.0821 ; skirt
G1 X128.911 Y99.404 E.08214 ; skirt
G1 X129.587 Y101.5 E.10751 ; skirt
G1 X129.587 Y123.5 E1.07395 ; skirt
G1 X129.193 Y125.135 E.0821 ; skirt
G1 X128.096 Y126.411 E.08214 ; skirt
G1 X126 Y127.087 E.10751 ; skirt
G1 X104 Y127.087 E1.07395 ; skirt
G1 X102.365 Y126.693 E.0821 ; skirt
G1 X101.089 Y125.596 E.08214 ; skirt
G1 X100.413 Y123.5 E.10751 ; skirt
G1 X100.413 Y101.5 E1.07395 ; skirt
G1 X100.807 Y99.865 E.0821 ; skirt
G1 X101.691 Y98.836 E.06622 ; skirt
EXCLUDE_OBJECT_START NAME='Shape_Box'
G10 ; retract
G1 X101.691 Y98.836 F9000 ; move to first perimeter point
G1 X105.589 Y103.089 ; move to first perimeter point
G11 ; unretract
;TYPE:Perimeter
;WIDTH:0.629999
G1 F1800
G1 X124.411 Y103.089 E.91881 ; perimeter
G1 X124.411 Y112.5 E.45941 ; perimeter
G1 X124.411 Y121.911 E.45941 ; perimeter
G1 X105.589 Y121.911 E.91881 ; perimeter
G1 X105.589 Y103.179 E.91442 ; perimeter
G1 X105.589 Y103.179 F9000 ; move to first perimeter point
M73 P1 R38
G1 X105.002 Y102.502 ; move to first perimeter point
G1 F1800
G1 X124.998 Y102.502 E.97612 ; perimeter
G1 X124.998 Y112.5 E.48806 ; perimeter
G1 X124.998 Y122.498 E.48806 ; perimeter
G1 X105.002 Y122.498 E.97612 ; perimeter
G1 X105.002 Y102.592 E.97173 ; perimeter
G1 X104.415 Y101.915 F9000 ; move to first perimeter point
;TYPE:External perimeter
G1 F1800
G1 X125.585 Y101.915 E1.03343 ; perimeter
G1 X125.585 Y112.5 E.51672 ; perimeter
G1 X125.585 Y123.085 E.51672 ; perimeter
G1 X104.415 Y123.085 E1.03343 ; perimeter
G1 X104.415 Y102.005 E1.02904 ; perimeter
G1 X105.008 Y101.916 F9000 ; move inwards before travel
G10 ; retract
G1 X124.223 Y104.48 ; move to first infill point
G11 ; unretract
;TYPE:Solid infill
;WIDTH:0.637682
G1 F1800
G1 X123.284 Y103.541 E.06567 ; infill
G1 X122.443 Y103.541 E.04159 ; infill
G1 X123.959 Y105.057 E.10603 ; infill
G1 X123.959 Y105.898 E.04159 ; infill
G1 X121.602 Y103.541 E.16485 ; infill
G1 X120.761 Y103.541 E.04159 ; infill
G1 X123.959 Y106.739 E.22367 ; infill
G1 X123.959 Y107.58 E.04159 ; infill
G1 X119.92 Y103.541 E.28249 ; infill
G1 X119.079 Y103.541 E.04159 ; infill
G1 X123.959 Y108.421 E.3413 ; infill
G1 X123.959 Y109.263 E.04164 ; infill
G1 X118.237 Y103.541 E.40019 ; infill
G1 X117.396 Y103.541 E.04159 ; infill
G1 X123.959 Y110.104 E.45901 ; infill
G1 X123.959 Y110.945 E.04159 ; infill
G1 X116.555 Y103.541 E.51783 ; infill
G1 X115.714 Y103.541 E.04159 ; infill
G1 X123.959 Y111.786 E.57665 ; infill
G1 X123.959 Y112.627 E.04159 ; infill
G1 X114.873 Y103.541 E.63547 ; infill
G1 X114.032 Y103.541 E.04159 ; infill
G1 X123.959 Y113.468 E.69429 ; infill
G1 X123.959 Y114.309 E.04159 ; infill
G1 X113.191 Y103.541 E.75311 ; infill
G1 X112.35 Y103.541 E.04159 ; infill
G1 X123.959 Y115.15 E.81193 ; infill
G1 X123.959 Y115.992 E.04164 ; infill
G1 X111.508 Y103.541 E.87082 ; infill
G1 X110.667 Y103.541 E.04159 ; infill
G1 X123.959 Y116.833 E.92964 ; infill
G1 X123.959 Y117.674 E.04159 ; infill
G1 X109.826 Y103.541 E.98845 ; infill
G1 X108.985 Y103.541 E.04159 ; infill
G1 X123.959 Y118.515 E1.04727 ; infill
G1 X123.959 Y119.356 E.04159 ; infill
G1 X108.144 Y103.541 E1.10609 ; infill
G1 X107.303 Y103.541 E.04159 ; infill
G1 X123.959 Y120.197 E1.16491 ; infill
G1 X123.959 Y121.038 E.04159 ; infill
G1 X106.462 Y103.541 E1.22373 ; infill
G1 X106.041 Y103.541 E.02082 ; infill
M73 P2 R38
G1 X106.041 Y103.962 E.02082 ; infill
G1 X123.538 Y121.459 E1.22373 ; infill
G1 X122.697 Y121.459 E.04159 ; infill
G1 X106.041 Y104.803 E1.16491 ; infill
G1 X106.041 Y105.644 E.04159 ; infill
G1 X121.856 Y121.459 E1.10609 ; infill
G1 X121.015 Y121.459 E.04159 ; infill
G1 X106.041 Y106.485 E1.04727 ; infill
G1 X106.041 Y107.326 E.04159 ; infill
G1 X120.174 Y121.459 E.98845 ; infill
G1 X119.333 Y121.459 E.04159 ; infill
G1 X106.041 Y108.167 E.92964 ; infill
G1 X106.041 Y109.009 E.04164 ; infill
G1 X118.491 Y121.459 E.87075 ; infill
G1 X117.65 Y121.459 E.04159 ; infill
G1 X106.041 Y109.85 E.81193 ; infill
G1 X106.041 Y110.691 E.04159 ; infill
G1 X116.809 Y121.459 E.75311 ; infill
G1 X115.968 Y121.459 E.04159 ; infill
G1 X106.041 Y111.532 E.69429 ; infill
G1 X106.041 Y112.373 E.04159 ; infill
G1 X115.127 Y121.459 E.63547 ; infill
G1 X114.286 Y121.459 E.04159 ; infill
G1 X106.041 Y113.214 E.57665 ; infill
G1 X106.041 Y114.055 E.04159 ; infill
G1 X113.445 Y121.459 E.51783 ; infill
G1 X112.604 Y121.459 E.04159 ; infill
G1 X106.041 Y114.896 E.45901 ; infill
G1 X106.041 Y115.738 E.04164 ; infill
G1 X111.762 Y121.459 E.40012 ; infill
G1 X110.921 Y121.459 E.04159 ; infill
G1 X106.041 Y116.579 E.3413 ; infill
G1 X106.041 Y117.42 E.04159 ; infill
G1 X110.08 Y121.459 E.28249 ; infill
G1 X109.239 Y121.459 E.04159 ; infill
G1 X106.041 Y118.261 E.22367 ; infill
G1 X106.041 Y119.102 E.04159 ; infill
G1 X108.398 Y121.459 E.16485 ; infill
G1 X107.557 Y121.459 E.04159 ; infill
G1 X106.041 Y119.943 E.10603 ; infill
G1 X106.041 Y120.784 E.04159 ; infill
G1 X106.98 Y121.723 E.06567 ; infill
EXCLUDE_OBJECT_END NAME='Shape_Box'
M106 S81.6 ; enable fan
;LAYER_CHANGE
;Z:0.4
;HEIGHT:0.2
;BEFORE_LAYER_CHANGE
G92 E0
;0.4
;M221 S89

G10 ; retract
G1 Z.4 F9000 ; simple layer change
;AFTER_LAYER_CHANGE
;0.4
SET_PRINT_STATS_INFO CURRENT_LAYER=2
EXCLUDE_OBJECT_START NAME='Shape_Box'
G1 X105.534 Y121.966 ; move to first layer point
G11 ; unretract
;TYPE:Perimeter
;WIDTH:0.659999
G1 F2516
G1 X105.534 Y103.034 E.97141 ; perimeter
G1 X124.466 Y103.034 E.97141 ; perimeter
G1 X124.466 Y112.5 E.4857 ; perimeter
G1 X124.466 Y121.966 E.4857 ; perimeter
G1 X105.624 Y121.966 E.96679 ; perimeter
G1 X105.624 Y121.966 F9000 ; move to first perimeter point
G1 X104.917 Y122.583 ; move to first perimeter point
G1 F2516
G1 X104.917 Y102.417 E1.03472 ; perimeter
G1 X125.083 Y102.417 E1.03472 ; perimeter
G1 X125.083 Y112.5 E.51736 ; perimeter
G1 X125.083 Y122.583 E.51736 ; perimeter
G1 X105.007 Y122.583 E1.03011 ; perimeter
G1 X104.315 Y123.185 F9000 ; move to first perimeter point
;TYPE:External perimeter
;WIDTH:0.629999
G1 F2516
G1 X104.315 Y101.815 E1.04319 ; perimeter
G1 X125.685 Y101.815 E1.04319 ; perimeter
G1 X125.685 Y112.5 E.5216 ; perimeter
G1 X125.685 Y123.185 E.5216 ; perimeter
G1 X104.405 Y123.185 E1.0388 ; perimeter
G1 X104.316 Y122.592 F9000 ; move inwards before travel
G10 ; retract
G1 X106.177 Y103.559 ; move to first infill point
G11 ; unretract
;TYPE:Solid infill
;WIDTH:0.80972
G1 F2400
G1 X106.109 Y103.492 E.00609 ; infill
G1 X106.016 Y103.516 E.00612 ; infill
G1 X105.992 Y103.609 E.00612 ; infill
G1 X106.059 Y103.677 E.00609 ; infill
G1 X106.152 Y103.652 E.00614 ; infill
;WIDTH:0.659999
G1 X106.009 Y104.638 E.05112 ; infill
G1 X107.138 Y103.509 E.08192 ; infill
G1 X108.01 Y103.509 E.04474 ; infill
G1 X106.009 Y105.51 E.1452 ; infill
G1 X106.009 Y106.383 E.04479 ; infill
G1 X108.883 Y103.509 E.20855 ; infill
G1 X109.756 Y103.509 E.04479 ; infill
G1 X106.009 Y107.256 E.2719 ; infill
G1 X106.009 Y108.128 E.04474 ; infill
G1 X110.628 Y103.509 E.33517 ; infill
G1 X111.501 Y103.509 E.04479 ; infill
G1 X106.009 Y109.001 E.39852 ; infill
G1 X106.009 Y109.874 E.04479 ; infill
G1 X112.374 Y103.509 E.46187 ; infill
G1 X113.246 Y103.509 E.04474 ; infill
G1 X106.009 Y110.746 E.52514 ; infill
G1 X106.009 Y111.619 E.04479 ; infill
G1 X114.119 Y103.509 E.58849 ; infill
G1 X114.992 Y103.509 E.04479 ; infill
G1 X106.009 Y112.492 E.65184 ; infill
G1 X106.009 Y113.364 E.04474 ; infill
G1 X115.864 Y103.509 E.71512 ; infill
G1 X116.737 Y103.509 E.04479 ; infill
G1 X106.009 Y114.237 E.77846 ; infill
G1 X106.009 Y115.11 E.04479 ; infill
G1 X117.61 Y103.509 E.84181 ; infill
G1 X118.482 Y103.509 E.04474 ; infill
G1 X106.009 Y115.982 E.90509 ; infill
G1 X106.009 Y116.855 E.04479 ; infill
G1 X119.355 Y103.509 E.96844 ; infill
G1 X120.228 Y103.509 E.04479 ; infill
G1 X106.009 Y117.728 E1.03178 ; infill
G1 X106.009 Y118.6 E.04474 ; infill
G1 X121.101 Y103.509 E1.0951 ; infill
G1 X121.973 Y103.509 E.04474 ; infill
M73 P3 R38
G1 X106.009 Y119.473 E1.15841 ; infill
G1 X106.009 Y120.346 E.04479 ; infill
G1 X122.846 Y103.509 E1.22176 ; infill
G1 X123.719 Y103.509 E.04479 ; infill
G1 X106.009 Y121.219 E1.2851 ; infill
G1 X105.974 Y121.374 E.00815 ; infill
;WIDTH:0.624306
G1 X105.939 Y121.53 E.00773 ; infill
;WIDTH:0.588613
G1 X105.904 Y121.686 E.00725 ; infill
;WIDTH:0.55292
G1 X105.842 Y121.703 E.00273 ; infill
G1 X105.797 Y121.658 E.0027 ; infill
G1 X105.814 Y121.596 E.00273 ; infill
G1 X105.875 Y121.58 E.00267 ; infill
G1 X105.921 Y121.625 E.00273 ; infill
;WIDTH:0.659999
G1 X106.61 Y121.491 E.03602 ; infill
G1 X123.991 Y104.11 E1.26123 ; infill
G1 X123.991 Y104.983 E.04479 ; infill
G1 X107.483 Y121.491 E1.19788 ; infill
G1 X108.355 Y121.491 E.04474 ; infill
G1 X123.991 Y105.855 E1.13461 ; infill
G1 X123.991 Y106.728 E.04479 ; infill
G1 X109.228 Y121.491 E1.07126 ; infill
G1 X110.101 Y121.491 E.04479 ; infill
G1 X123.991 Y107.601 E1.00791 ; infill
G1 X123.991 Y108.473 E.04474 ; infill
G1 X110.973 Y121.491 E.94464 ; infill
G1 X111.846 Y121.491 E.04479 ; infill
G1 X123.991 Y109.346 E.88129 ; infill
G1 X123.991 Y110.219 E.04479 ; infill
G1 X112.719 Y121.491 E.81794 ; infill
G1 X113.591 Y121.491 E.04474 ; infill
G1 X123.991 Y111.091 E.75466 ; infill
G1 X123.991 Y111.964 E.04479 ; infill
G1 X114.464 Y121.491 E.69131 ; infill
G1 X115.337 Y121.491 E.04479 ; infill
G1 X123.991 Y112.837 E.62797 ; infill
G1 X123.991 Y113.709 E.04474 ; infill
G1 X116.209 Y121.491 E.56469 ; infill
G1 X117.082 Y121.491 E.04479 ; infill
G1 X123.991 Y114.582 E.50134 ; infill
G1 X123.991 Y115.455 E.04479 ; infill
G1 X117.955 Y121.491 E.43799 ; infill
G1 X118.827 Y121.491 E.04474 ; infill
G1 X123.991 Y116.327 E.37472 ; infill
G1 X123.991 Y117.2 E.04479 ; infill
G1 X119.7 Y121.491 E.31137 ; infill
G1 X120.573 Y121.491 E.04479 ; infill
G1 X123.991 Y118.073 E.24802 ; infill
G1 X123.991 Y118.945 E.04474 ; infill
G1 X121.445 Y121.491 E.18475 ; infill
G1 X122.318 Y121.491 E.04479 ; infill
G1 X123.991 Y119.818 E.1214 ; infill
G1 X124.316 Y120.437 E.03587 ; infill
;WIDTH:0.55292
G1 X124.271 Y120.392 E.0027 ; infill
G1 X124.209 Y120.409 E.00273 ; infill
G1 X124.192 Y120.47 E.00269 ; infill
G1 X124.238 Y120.515 E.00273 ; infill
G1 X124.299 Y120.499 E.00267 ; infill
;WIDTH:0.588613
G1 X124.196 Y120.563 E.0055 ; infill
;WIDTH:0.624306
G1 X124.094 Y120.627 E.00582 ; infill
;WIDTH:0.659999
G1 X123.991 Y120.691 E.00622 ; infill
G1 X123.191 Y121.491 E.05805 ; infill
G1 X123.127 Y121.594 E.00622 ; infill
;WIDTH:0.624306
G1 X123.063 Y121.696 E.00582 ; infill
;WIDTH:0.588613
G1 X122.999 Y121.799 E.0055 ; infill
;WIDTH:0.55292
G1 X122.937 Y121.816 E.00273 ; infill
G1 X122.892 Y121.771 E.0027 ; infill
G1 X122.909 Y121.709 E.00273 ; infill
G1 X122.97 Y121.692 E.00269 ; infill
G1 X123.015 Y121.738 E.00273 ; infill
EXCLUDE_OBJECT_END NAME='Shape_Box'
M106 S163.2 ; enable fan
;LAYER_CHANGE
;Z:0.6
;HEIGHT:0.2
;BEFORE_LAYER_CHANGE
G92 E0
;0.6
;

G10 ; retract
G1 Z.6 F9000 ; simple layer change
;AFTER_LAYER_CHANGE
;0.6
SET_PRINT_STATS_INFO CURRENT_LAYER=3
EXCLUDE_OBJECT_START NAME='Shape_Box'
G1 X124.466 Y121.966 ; move to first layer point
G11 ; unretract
;TYPE:Perimeter
;WIDTH:0.659999
G1 F2495
G1 X105.534 Y121.966 E.97141 ; perimeter
G1 X105.534 Y103.034 E.97141 ; perimeter
G1 X124.466 Y103.034 E.97141 ; perimeter
G1 X124.466 Y112.5 E.4857 ; perimeter
G1 X124.466 Y121.876 E.48109 ; perimeter
G1 X124.466 Y121.876 F9000 ; move to first perimeter point
G1 X125.083 Y122.583 ; move to first perimeter point
G1 F2495
G1 X104.917 Y122.583 E1.03472 ; perimeter
G1 X104.917 Y102.417 E1.03472 ; perimeter
G1 X125.083 Y102.417 E1.03472 ; perimeter
G1 X125.083 Y112.5 E.51736 ; perimeter
G1 X125.083 Y122.493 E.51274 ; perimeter
G1 X125.685 Y123.185 F9000 ; move to first perimeter point
;TYPE:External perimeter
;WIDTH:0.629999
G1 F2495
G1 X104.315 Y123.185 E1.04319 ; perimeter
G1 X104.315 Y101.815 E1.04319 ; perimeter
G1 X125.685 Y101.815 E1.04319 ; perimeter
G1 X125.685 Y112.5 E.5216 ; perimeter
G1 X125.685 Y123.095 E.5172 ; perimeter
G1 X125.092 Y123.184 F9000 ; move inwards before travel
G10 ; retract
G1 X106.059 Y121.323 ; move to first infill point
G11 ; unretract
;TYPE:Solid infill
;WIDTH:0.80972
G1 F2400
G1 X105.992 Y121.391 E.00609 ; infill
G1 X106.016 Y121.484 E.00612 ; infill
G1 X106.109 Y121.508 E.00612 ; infill
G1 X106.177 Y121.441 E.00609 ; infill
G1 X106.152 Y121.348 E.00614 ; infill
;WIDTH:0.659999
G1 X106.009 Y120.362 E.05112 ; infill
G1 X107.138 Y121.491 E.08192 ; infill
G1 X108.01 Y121.491 E.04474 ; infill
G1 X106.009 Y119.49 E.1452 ; infill
G1 X106.009 Y118.617 E.04479 ; infill
G1 X108.883 Y121.491 E.20855 ; infill
G1 X109.756 Y121.491 E.04479 ; infill
G1 X106.009 Y117.744 E.2719 ; infill
G1 X106.009 Y116.872 E.04474 ; infill
G1 X110.628 Y121.491 E.33517 ; infill
G1 X111.501 Y121.491 E.04479 ; infill
G1 X106.009 Y115.999 E.39852 ; infill
G1 X106.009 Y115.126 E.04479 ; infill
G1 X112.374 Y121.491 E.46187 ; infill
G1 X113.246 Y121.491 E.04474 ; infill
G1 X106.009 Y114.254 E.52514 ; infill
G1 X106.009 Y113.381 E.04479 ; infill
G1 X114.119 Y121.491 E.58849 ; infill
G1 X114.992 Y121.491 E.04479 ; infill
G1 X106.009 Y112.508 E.65184 ; infill
G1 X106.009 Y111.636 E.04474 ; infill
M73 P3 R37
G1 X115.864 Y121.491 E.71512 ; infill
G1 X116.737 Y121.491 E.04479 ; infill
G1 X106.009 Y110.763 E.77846 ; infill
G1 X106.009 Y109.89 E.04479 ; infill
G1 X117.61 Y121.491 E.84181 ; infill
G1 X118.482 Y121.491 E.04474 ; infill
G1 X106.009 Y109.018 E.90509 ; infill
G1 X106.009 Y108.145 E.04479 ; infill
G1 X119.355 Y121.491 E.96844 ; infill
G1 X120.228 Y121.491 E.04479 ; infill
G1 X106.009 Y107.272 E1.03178 ; infill
G1 X106.009 Y106.4 E.04474 ; infill
G1 X121.1 Y121.491 E1.09506 ; infill
G1 X121.973 Y121.491 E.04479 ; infill
M73 P4 R37
G1 X106.009 Y105.527 E1.15841 ; infill
G1 X106.009 Y104.654 E.04479 ; infill
