; HEADER_BLOCK_START
; generated by OrcaSlicer 1.9.1 on 2024-03-21 at 20:09:54
; total layer number: 110
; filament_density: 1.27
; filament_diameter: 1.75
; max_z_height: 22.00
; HEADER_BLOCK_END

; THUMBNAIL_BLOCK_START

;
; THUMBNAIL_BLOCK_END

; external perimeters extrusion width = 0.63mm
; perimeters extrusion width = 0.66mm
; infill extrusion width = 0.66mm
; solid infill extrusion width = 0.66mm
; top infill extrusion width = 0.60mm
; first layer extrusion width = 0.63mm

; EXECUTABLE_BLOCK_START
EXCLUDE_OBJECT_DEFINE NAME=Cube_id_0_copy_0 CENTER=115,105 POLYGON=[[104,94],[126,94],[126,116],[104,116],[104,94]]
M73 P0 R18
;TYPE:Custom
G90 ; use absolute coordinates
M83 ; extruder relative mode
M140 S70 ; set final bed temp
G4 S10 ; allow partial nozzle warmup
G28 ; home all axis
G1 Z5 F240
G1 X2 Y10 F3000
M104 S240 ; set final nozzle temp
M190 S70 ; wait for bed temp to stabilize
M109 S240 ; wait for nozzle temp to stabilize
G1 Z0.28 F240
G92 E0
G1 Y140 E10 F1500 ; prime the nozzle
G1 X2.3 F5000
G92 E0
G1 Y10 E10 F1200 ; prime the nozzle
G92 E0
G90
G21
M83 ; use relative distances for extrusion
; filament start gcode
SET_RETRACTION RETRACT_LENGTH=1.5
M106 S0
;LAYER_CHANGE
;Z:0.2
;HEIGHT:0.2
;BEFORE_LAYER_CHANGE
;0.2
G92 E0
TIMELAPSE_TAKE_FRAME
G10 ; retract
;AFTER_LAYER_CHANGE
;_SET_FAN_SPEED_CHANGING_LAYER
G1 X101.22 Y92.469 F9000
M73 P1 R18
G1 Z.2
G11 ; unretract
;TYPE:Skirt
;WIDTH:0.63
G1 F1800
G1 X102.303 Y91.318 E.0764
G1 X104 Y90.826 E.08539
G1 X126 Y90.826 E1.06321
G1 X127.531 Y91.22 E.0764
G1 X128.682 Y92.303 E.0764
G1 X129.174 Y94 E.08539
G1 X129.174 Y116 E1.06321
G1 X128.78 Y117.531 E.0764
G1 X127.697 Y118.682 E.0764
G1 X126 Y119.174 E.08539
G1 X104 Y119.174 E1.06321
G1 X102.469 Y118.78 E.0764
G1 X101.318 Y117.697 E.0764
G1 X100.826 Y116 E.08539
G1 X100.826 Y94 E1.06321
G1 X101.205 Y92.527 E.0735
G1 X101.787 Y92.694 F9000
G1 F1800
G1 X101.805 Y92.63 E.00319
G1 X102.863 Y91.676 E.06885
G1 X104 Y91.413 E.0564
G1 X126 Y91.413 E1.06321
G1 X127.37 Y91.805 E.06885
G1 X128.324 Y92.863 E.06885
G1 X128.587 Y94 E.0564
G1 X128.587 Y116 E1.06321
G1 X128.195 Y117.37 E.06885
G1 X127.137 Y118.324 E.06885
G1 X126 Y118.587 E.0564
G1 X104 Y118.587 E1.06321
G1 X102.63 Y118.195 E.06885
G1 X101.676 Y117.137 E.06885
G1 X101.413 Y116 E.0564
G1 X101.413 Y94 E1.06321
G1 X101.771 Y92.751 E.06276
; printing object Cube id:0 copy 0
G10 ; retract
EXCLUDE_OBJECT_START NAME=Cube_id_0_copy_0
G1 X125.098 Y115.098 F9000
G11 ; unretract
;TYPE:Inner wall
;WIDTH:0.629999
M73 P2 R18
G1 F1200
G1 X104.902 Y115.098 E.97602
G1 X104.902 Y94.902 E.97602
G1 X125.098 Y94.902 E.97602
G1 X125.098 Y105 E.48801
G1 X125.098 Y115.038 E.48511
G1 X125.685 Y115.685 F9000
;TYPE:Outer wall
G1 F1200
G1 X104.315 Y115.685 E1.03276
G1 X104.315 Y94.315 E1.03276
G1 X125.685 Y94.315 E1.03276
G1 X125.685 Y105 E.51638
G1 X125.685 Y115.625 E.51348
G10 ; retract
G1 X124.91 Y96.3 F9000
G11 ; unretract
;TYPE:Bottom surface
;WIDTH:0.641066
G1 F1800
G1 X123.964 Y95.354 E.06588
G1 X123.118 Y95.354 E.04165
G1 X124.646 Y96.882 E.10638
G1 X124.646 Y97.728 E.04165
G1 X122.272 Y95.354 E.16529
G1 X121.426 Y95.354 E.04165
G1 X124.646 Y98.574 E.22419
G1 X124.646 Y99.42 E.04165
G1 X120.58 Y95.354 E.2831
G1 X119.734 Y95.354 E.04165
G1 X124.646 Y100.266 E.342
G1 X124.646 Y101.111 E.04165
G1 X118.889 Y95.354 E.4009
G1 X118.043 Y95.354 E.04165
G1 X124.646 Y101.957 E.45981
G1 X124.646 Y102.803 E.04165
G1 X117.197 Y95.354 E.51871
G1 X116.351 Y95.354 E.04165
M73 P3 R18
G1 X124.646 Y103.649 E.57761
G1 X124.646 Y104.495 E.04165
G1 X115.505 Y95.354 E.63652
G1 X114.659 Y95.354 E.04165
G1 X124.646 Y105.341 E.69542
G1 X124.646 Y106.187 E.04165
G1 X113.813 Y95.354 E.75433
G1 X112.967 Y95.354 E.04165
G1 X124.646 Y107.033 E.81323
G1 X124.646 Y107.879 E.04165
G1 X112.121 Y95.354 E.87213
G1 X111.275 Y95.354 E.04165
G1 X124.646 Y108.725 E.93104
G1 X124.646 Y109.57 E.04165
G1 X110.43 Y95.354 E.98994
G1 X109.584 Y95.354 E.04165
G1 X124.646 Y110.416 E1.04885
G1 X124.646 Y111.262 E.04165
G1 X108.738 Y95.354 E1.10775
G1 X107.892 Y95.354 E.04165
G1 X124.646 Y112.108 E1.16665
G1 X124.646 Y112.954 E.04165
G1 X107.046 Y95.354 E1.22556
G1 X106.2 Y95.354 E.04165
G1 X124.646 Y113.8 E1.28446
G1 X124.646 Y114.646 E.04165
G1 X105.354 Y95.354 E1.34336
G1 X105.354 Y96.2 E.04165
G1 X123.8 Y114.646 E1.28445
G1 X122.954 Y114.646 E.04165
G1 X105.354 Y97.046 E1.22555
M73 P4 R18
G1 X105.354 Y97.892 E.04165
G1 X122.108 Y114.646 E1.16665
G1 X121.262 Y114.646 E.04165
G1 X105.354 Y98.738 E1.10774
G1 X105.354 Y99.584 E.04165
G1 X120.416 Y114.646 E1.04884
G1 X119.57 Y114.646 E.04165
G1 X105.354 Y100.43 E.98994
G1 X105.354 Y101.276 E.04165
G1 X118.724 Y114.646 E.93103
G1 X117.879 Y114.646 E.04165
G1 X105.354 Y102.121 E.87213
G1 X105.354 Y102.967 E.04165
G1 X117.033 Y114.646 E.81322
G1 X116.187 Y114.646 E.04165
G1 X105.354 Y103.813 E.75432
G1 X105.354 Y104.659 E.04165
G1 X115.341 Y114.646 E.69542
G1 X114.495 Y114.646 E.04165
G1 X105.354 Y105.505 E.63651
G1 X105.354 Y106.351 E.04165
G1 X113.649 Y114.646 E.57761
G1 X112.803 Y114.646 E.04165
G1 X105.354 Y107.197 E.5187
G1 X105.354 Y108.043 E.04165
G1 X111.957 Y114.646 E.4598
G1 X111.111 Y114.646 E.04165
G1 X105.354 Y108.889 E.4009
G1 X105.354 Y109.735 E.04165
G1 X110.265 Y114.646 E.34199
G1 X109.42 Y114.646 E.04165
M73 P4 R17
G1 X105.354 Y110.58 E.28309
G1 X105.354 Y111.426 E.04165
G1 X108.574 Y114.646 E.22419
G1 X107.728 Y114.646 E.04165
G1 X105.354 Y112.272 E.16528
G1 X105.354 Y113.118 E.04165
G1 X106.882 Y114.646 E.10638
G1 X106.036 Y114.646 E.04165
G1 X105.09 Y113.7 E.06587
; stop printing object Cube id:0 copy 0
;LAYER_CHANGE
;Z:0.4
;HEIGHT:0.2
;BEFORE_LAYER_CHANGE
;0.4
G92 E0
TIMELAPSE_TAKE_FRAME
G10 ; retract
EXCLUDE_OBJECT_END NAME=Cube_id_0_copy_0
;AFTER_LAYER_CHANGE
;_SET_FAN_SPEED_CHANGING_LAYER
; printing object Cube id:0 copy 0
EXCLUDE_OBJECT_START NAME=Cube_id_0_copy_0
G1 X125.083 Y115.083 Z.4 F9000
G11 ; unretract
;TYPE:Inner wall
;WIDTH:0.659999
G1 F4200
G1 X104.917 Y115.083 E1.02437
G1 X104.917 Y94.917 E1.02437
M73 P5 R17
G1 X125.083 Y94.917 E1.02437
G1 X125.083 Y105 E.51218
G1 X125.083 Y115.023 E.50914
G1 X125.685 Y115.685 F9000
;TYPE:Outer wall
;WIDTH:0.629999
G1 F2700
G1 X104.315 Y115.685 E1.03276
G1 X104.315 Y94.315 E1.03276
G1 X125.685 Y94.315 E1.03276
G1 X125.685 Y105 E.51638
G1 X125.685 Y115.625 E.51348
G10 ; retract
G1 X123.637 Y114.885 F9000
G11 ; unretract
;TYPE:Internal solid infill
;WIDTH:0.66073
G1 F2700
G1 X124.608 Y113.914 E.06986
G1 X124.608 Y113.04 E.04443
G1 X123.04 Y114.608 E.11272
G1 X122.167 Y114.608 E.04443
G1 X124.608 Y112.167 E.17556
G1 X124.608 Y111.293 E.04443
G1 X121.293 Y114.608 E.2384
G1 X120.419 Y114.608 E.04443
G1 X124.608 Y110.419 E.30125
G1 X124.608 Y109.546 E.04443
G1 X119.546 Y114.608 E.36409
G1 X118.672 Y114.608 E.04443
G1 X124.608 Y108.672 E.42693
G1 X124.608 Y107.798 E.04443
G1 X117.798 Y114.608 E.48977
G1 X116.924 Y114.608 E.04443
G1 X124.608 Y106.924 E.55261
G1 X124.608 Y106.051 E.04443
G1 X116.051 Y114.608 E.61545
G1 X115.177 Y114.608 E.04443
G1 X124.608 Y105.177 E.67829
G1 X124.608 Y104.303 E.04443
G1 X114.303 Y114.608 E.74113
G1 X113.43 Y114.608 E.04443
G1 X124.608 Y103.43 E.80397
G1 X124.608 Y102.556 E.04443
G1 X112.556 Y114.608 E.86681
G1 X111.682 Y114.608 E.04443
G1 X124.608 Y101.682 E.92965
G1 X124.608 Y100.808 E.04443
G1 X110.808 Y114.608 E.99249
G1 X109.935 Y114.608 E.04443
G1 X124.608 Y99.935 E1.05533
G1 X124.608 Y99.061 E.04443
G1 X109.061 Y114.608 E1.11817
G1 X108.187 Y114.608 E.04443
G1 X124.608 Y98.187 E1.18101
G1 X124.608 Y97.314 E.04443
G1 X107.314 Y114.608 E1.24385
G1 X106.44 Y114.608 E.04443
G1 X124.608 Y96.44 E1.30669
G1 X124.608 Y95.566 E.04443
M73 P6 R17
G1 X105.566 Y114.608 E1.36953
G1 X105.392 Y114.608 E.00885
G1 X105.392 Y113.908 E.03559
G1 X123.908 Y95.392 E1.33172
G1 X123.034 Y95.392 E.04443
G1 X105.392 Y113.034 E1.26887
G1 X105.392 Y112.161 E.04443
G1 X122.161 Y95.392 E1.20603
G1 X121.287 Y95.392 E.04443
G1 X105.392 Y111.287 E1.14319
G1 X105.392 Y110.413 E.04443
G1 X120.413 Y95.392 E1.08035
G1 X119.539 Y95.392 E.04443
G1 X105.392 Y109.539 E1.01751
G1 X105.392 Y108.666 E.04443
G1 X118.666 Y95.392 E.95467
G1 X117.792 Y95.392 E.04443
G1 X105.392 Y107.792 E.89183
G1 X105.392 Y106.918 E.04443
G1 X116.918 Y95.392 E.82899
G1 X116.045 Y95.392 E.04443
G1 X105.392 Y106.045 E.76615
G1 X105.392 Y105.171 E.04443
G1 X115.171 Y95.392 E.70331
G1 X114.297 Y95.392 E.04443
G1 X105.392 Y104.297 E.64047
G1 X105.392 Y103.423 E.04443
G1 X113.423 Y95.392 E.57763
G1 X112.55 Y95.392 E.04443
G1 X105.392 Y102.55 E.51479
G1 X105.392 Y101.676 E.04443
G1 X111.676 Y95.392 E.45195
G1 X110.802 Y95.392 E.04443
G1 X105.392 Y100.802 E.38911
G1 X105.392 Y99.929 E.04443
G1 X109.929 Y95.392 E.32627
G1 X109.055 Y95.392 E.04443
G1 X105.392 Y99.055 E.26343
G1 X105.392 Y98.181 E.04443
G1 X108.181 Y95.392 E.20059
G1 X107.307 Y95.392 E.04443
G1 X105.392 Y97.307 E.13775
G1 X105.392 Y96.434 E.04443
G1 X106.711 Y95.115 E.09488
G1 X105.563 Y95.461 F9000
;WIDTH:0.64345
G1 F2700
G1 X105.488 Y95.461 E.00371
G1 X105.451 Y95.526 E.00371
G1 X105.488 Y95.591 E.00371
G1 X105.571 Y95.578 E.00413
; stop printing object Cube id:0 copy 0
M106 S104
;LAYER_CHANGE
;Z:0.6
;HEIGHT:0.2
;BEFORE_LAYER_CHANGE
;0.6
G92 E0
TIMELAPSE_TAKE_FRAME
G10 ; retract
EXCLUDE_OBJECT_END NAME=Cube_id_0_copy_0
;AFTER_LAYER_CHANGE
;_SET_FAN_SPEED_CHANGING_LAYER
; printing object Cube id:0 copy 0
EXCLUDE_OBJECT_START NAME=Cube_id_0_copy_0
G1 X125.083 Y115.083 Z.6 F9000
G11 ; unretract
;TYPE:Inner wall
;WIDTH:0.659999
G1 F4200
G1 X104.917 Y115.083 E1.02437
G1 X104.917 Y94.917 E1.02437
G1 X125.083 Y94.917 E1.02437
G1 X125.083 Y105 E.51218
M73 P7 R17
G1 X125.083 Y115.023 E.50914
G1 X125.685 Y115.685 F9000
;TYPE:Outer wall
;WIDTH:0.629999
G1 F2700
G1 X104.315 Y115.685 E1.03276
G1 X104.315 Y94.315 E1.03276
G1 X125.685 Y94.315 E1.03276
G1 X125.685 Y105 E.51638
G1 X125.685 Y115.625 E.51348
G10 ; retract
G1 X124.885 Y96.363 F9000
G11 ; unretract
;TYPE:Internal solid infill
;WIDTH:0.66073
G1 F2700
G1 X123.914 Y95.392 E.06986
G1 X123.04 Y95.392 E.04443
G1 X124.608 Y96.96 E.11272
G1 X124.608 Y97.833 E.04443
G1 X122.167 Y95.392 E.17556
G1 X121.293 Y95.392 E.04443
G1 X124.608 Y98.707 E.2384
G1 X124.608 Y99.581 E.04443
G1 X120.419 Y95.392 E.30125
G1 X119.546 Y95.392 E.04443
G1 X124.608 Y100.454 E.36409
G1 X124.608 Y101.328 E.04443
G1 X118.672 Y95.392 E.42693
G1 X117.798 Y95.392 E.04443
G1 X124.608 Y102.202 E.48977
G1 X124.608 Y103.076 E.04443
G1 X116.924 Y95.392 E.55261
G1 X116.051 Y95.392 E.04443
G1 X124.608 Y103.949 E.61545
G1 X124.608 Y104.823 E.04443
G1 X115.177 Y95.392 E.67829
G1 X114.303 Y95.392 E.04443
G1 X124.608 Y105.697 E.74113
G1 X124.608 Y106.57 E.04443
G1 X113.43 Y95.392 E.80397
G1 X112.556 Y95.392 E.04443
G1 X124.608 Y107.444 E.86681
G1 X124.608 Y108.318 E.04443
G1 X111.682 Y95.392 E.92965
G1 X110.808 Y95.392 E.04443
G1 X124.608 Y109.192 E.99249
G1 X124.608 Y110.065 E.04443
G1 X109.935 Y95.392 E1.05533
G1 X109.061 Y95.392 E.04443
G1 X124.608 Y110.939 E1.11817
G1 X124.608 Y111.813 E.04443
G1 X108.187 Y95.392 E1.18101
G1 X107.314 Y95.392 E.04443
G1 X124.608 Y112.686 E1.24385
G1 X124.608 Y113.56 E.04443
G1 X106.44 Y95.392 E1.30669
G1 X105.566 Y95.392 E.04443
M73 P8 R17
G1 X124.608 Y114.434 E1.36953
G1 X124.608 Y114.608 E.00885
G1 X123.908 Y114.608 E.03559
G1 X105.392 Y96.092 E1.33172
G1 X105.392 Y96.966 E.04443
G1 X123.034 Y114.608 E1.26887
G1 X122.161 Y114.608 E.04443
G1 X105.392 Y97.839 E1.20603
G1 X105.392 Y98.713 E.04443
G1 X121.287 Y114.608 E1.14319
G1 X120.413 Y114.608 E.04443
G1 X105.392 Y99.587 E1.08035
G1 X105.392 Y100.461 E.04443
G1 X119.539 Y114.608 E1.01751
G1 X118.666 Y114.608 E.04443
G1 X105.392 Y101.334 E.95467
G1 X105.392 Y102.208 E.04443
G1 X117.792 Y114.608 E.89183
G1 X116.918 Y114.608 E.04443
G1 X105.392 Y103.082 E.82899
G1 X105.392 Y103.955 E.04443
G1 X116.045 Y114.608 E.76615
G1 X115.171 Y114.608 E.04443
G1 X105.392 Y104.829 E.70331
G1 X105.392 Y105.703 E.04443
G1 X114.297 Y114.608 E.64047
G1 X113.423 Y114.608 E.04443
G1 X105.392 Y106.577 E.57763
G1 X105.392 Y107.45 E.04443
G1 X112.55 Y114.608 E.51479
G1 X111.676 Y114.608 E.04443
G1 X105.392 Y108.324 E.45195
G1 X105.392 Y109.198 E.04443
G1 X110.802 Y114.608 E.38911
G1 X109.929 Y114.608 E.04443
G1 X105.392 Y110.071 E.32627
G1 X105.392 Y110.945 E.04443
G1 X109.055 Y114.608 E.26343
G1 X108.181 Y114.608 E.04443
G1 X105.392 Y111.819 E.20059
G1 X105.392 Y112.693 E.04443
G1 X107.307 Y114.608 E.13775
G1 X106.434 Y114.608 E.04443
G1 X105.115 Y113.289 E.09488
G1 X105.563 Y114.409 F9000
;WIDTH:0.64345
G1 F2700
G1 X105.488 Y114.409 E.00371
G1 X105.451 Y114.474 E.00371
G1 X105.488 Y114.539 E.00371
G1 X105.571 Y114.526 E.00413
; stop printing object Cube id:0 copy 0
;LAYER_CHANGE
;Z:0.8
;HEIGHT:0.2
;BEFORE_LAYER_CHANGE
;0.8
G92 E0
TIMELAPSE_TAKE_FRAME
G10 ; retract
EXCLUDE_OBJECT_END NAME=Cube_id_0_copy_0
;AFTER_LAYER_CHANGE
;_SET_FAN_SPEED_CHANGING_LAYER
; printing object Cube id:0 copy 0
EXCLUDE_OBJECT_START NAME=Cube_id_0_copy_0
G1 X125.083 Y115.083 Z.8 F9000
G11 ; unretract
;TYPE:Inner wall
;WIDTH:0.659999
G1 F4200
G1 X104.917 Y115.083 E1.02437
G1 X104.917 Y94.917 E1.02437
G1 X125.083 Y94.917 E1.02437
G1 X125.083 Y105 E.51218
G1 X125.083 Y115.023 E.50914
M73 P9 R17
G1 X125.685 Y115.685 F9000
;TYPE:Outer wall
;WIDTH:0.629999
G1 F2700
G1 X104.315 Y115.685 E1.03276
G1 X104.315 Y94.315 E1.03276
G1 X125.685 Y94.315 E1.03276
G1 X125.685 Y105 E.51638
G1 X125.685 Y115.625 E.51348
G10 ; retract
G1 X123.637 Y114.885 F9000
G11 ; unretract
;TYPE:Internal solid infill
;WIDTH:0.66073
G1 F2700
G1 X124.608 Y113.914 E.06986
G1 X124.608 Y113.04 E.04443
G1 X123.04 Y114.608 E.11272
G1 X122.167 Y114.608 E.04443
G1 X124.608 Y112.167 E.17556
G1 X124.608 Y111.293 E.04443
G1 X121.293 Y114.608 E.2384
G1 X120.419 Y114.608 E.04443
G1 X124.608 Y110.419 E.30125
G1 X124.608 Y109.546 E.04443
G1 X119.546 Y114.608 E.36409
G1 X118.672 Y114.608 E.04443
G1 X124.608 Y108.672 E.42693
G1 X124.608 Y107.798 E.04443
G1 X117.798 Y114.608 E.48977
G1 X116.924 Y114.608 E.04443
G1 X124.608 Y106.924 E.55261
G1 X124.608 Y106.051 E.04443
G1 X116.051 Y114.608 E.61545
G1 X115.177 Y114.608 E.04443
G1 X124.608 Y105.177 E.67829
G1 X124.608 Y104.303 E.04443
G1 X114.303 Y114.608 E.74113
G1 X113.43 Y114.608 E.04443
G1 X124.608 Y103.43 E.80397
G1 X124.608 Y102.556 E.04443
G1 X112.556 Y114.608 E.86681
G1 X111.682 Y114.608 E.04443
G1 X124.608 Y101.682 E.92965
G1 X124.608 Y100.808 E.04443
G1 X110.808 Y114.608 E.99249
G1 X109.935 Y114.608 E.04443
G1 X124.608 Y99.935 E1.05533
G1 X124.608 Y99.061 E.04443
G1 X109.061 Y114.608 E1.11817
G1 X108.187 Y114.608 E.04443
G1 X124.608 Y98.187 E1.18101
G1 X124.608 Y97.314 E.04443
G1 X107.314 Y114.608 E1.24385
G1 X106.44 Y114.608 E.04443
G1 X124.608 Y96.44 E1.30669
G1 X124.608 Y95.566 E.04443
G1 X105.566 Y114.608 E1.36953
G1 X105.392 Y114.608 E.00885
M73 P10 R17
G1 X105.392 Y113.908 E.03559
G1 X123.908 Y95.392 E1.33172
G1 X123.034 Y95.392 E.04443
G1 X105.392 Y113.034 E1.26887
G1 X105.392 Y112.161 E.04443
M73 P10 R16
G1 X122.161 Y95.392 E1.20603
G1 X121.287 Y95.392 E.04443
G1 X105.392 Y111.287 E1.14319
G1 X105.392 Y110.413 E.04443
G1 X120.413 Y95.392 E1.08035
G1 X119.539 Y95.392 E.04443
G1 X105.392 Y109.539 E1.01751
G1 X105.392 Y108.666 E.04443
G1 X118.666 Y95.392 E.95467
G1 X117.792 Y95.392 E.04443
G1 X105.392 Y107.792 E.89183
G1 X105.392 Y106.918 E.04443
G1 X116.918 Y95.392 E.82899
G1 X116.045 Y95.392 E.04443
G1 X105.392 Y106.045 E.76615
G1 X105.392 Y105.171 E.04443
G1 X115.171 Y95.392 E.70331
G1 X114.297 Y95.392 E.04443
G1 X105.392 Y104.297 E.64047
G1 X105.392 Y103.423 E.04443
G1 X113.423 Y95.392 E.57763
G1 X112.55 Y95.392 E.04443
G1 X105.392 Y102.55 E.51479
G1 X105.392 Y101.676 E.04443
G1 X111.676 Y95.392 E.45195
G1 X110.802 Y95.392 E.04443
G1 X105.392 Y100.802 E.38911
G1 X105.392 Y99.929 E.04443
G1 X109.929 Y95.392 E.32627
G1 X109.055 Y95.392 E.04443
G1 X105.392 Y99.055 E.26343
G1 X105.392 Y98.181 E.04443
G1 X108.181 Y95.392 E.20059
G1 X107.307 Y95.392 E.04443
G1 X105.392 Y97.307 E.13775
G1 X105.392 Y96.434 E.04443
G1 X106.711 Y95.115 E.09488
G1 X105.563 Y95.461 F9000
;WIDTH:0.64345
G1 F2700
G1 X105.488 Y95.461 E.00371
